; %_N_CO4MMNORMALNIE_MPF
; Maszyna
;   dostawca: HAAS
;   model: VF-3
;   description: Haas VF-3
; T4 D=40 CR=0 - ZMIN=-34 - frez czolowy
; oczywiscie nikt normalny nie bedzie raczej puszczal programow z 5 znakami po przecinku, tak zeby operator zwariowal 
N10 G54
N11 G17 G710 G90 G94
N12 WORKPIECE(,"",,"BOX",112,0,-60,,135,225,-135,0)
N13 G64
N14 G0 SUPA Z0 D0

MSG ("Kieszen")
N15 T="GLOWICA40"
N16 M6
N17 D1
N18 S1000 M3
N19 G17 G90 G94
N20 G54
N21 G0 X22.82563 Y-23.60158
N22 G0 Z15
N23 M8
N24 G0 Z5
N25 G1 Z0.22222 F333.3
N26 G17
N27 G1 X22.82136 Y-23.59494 Z-0.02894 F600
N28 G1 X22.80857 Y-23.57505 Z-0.27911
N29 G1 X22.78732 Y-23.54198 Z-0.5273
N30 G1 X22.75768 Y-23.49587 Z-0.77254
N31 G1 X22.71976 Y-23.4369 Z-1.01385
N32 G1 X22.67374 Y-23.3653 Z-1.25028
N33 G1 X22.61977 Y-23.28135 Z-1.48089
N34 G1 X22.55808 Y-23.18539 Z-1.70479
N35 G1 X22.48891 Y-23.07779 Z-1.92108
N36 G1 X22.41253 Y-22.95898 Z-2.12892
N37 G1 X22.32925 Y-22.82942 Z-2.32747
N38 G1 X22.23939 Y-22.68964 Z-2.51597
N39 G1 X22.1433 Y-22.54017 Z-2.69365
N40 G1 X22.04137 Y-22.38161 Z-2.85983
N41 G1 X21.93401 Y-22.21459 Z-3.01385
N42 G1 X21.82162 Y-22.03977 Z-3.15509
N43 G1 X21.70466 Y-21.85782 Z-3.283
N44 G1 X21.58359 Y-21.66949 Z-3.39709
N45 G1 X21.45888 Y-21.47549 Z-3.49688
N46 G1 X21.33103 Y-21.27661 Z-3.582
N47 G1 X21.20054 Y-21.07363 Z-3.65211
N48 G1 X21.06793 Y-20.86734 Z-3.70693
N49 G1 X20.93372 Y-20.65857 Z-3.74624
N50 G1 X20.79844 Y-20.44813 Z-3.76988
N51 G1 X20.66262 Y-20.23685 Z-3.77778
N52 G1 X20.44209 Y-19.89381
N53 G2 X8.72535 Y20 CR=73.77465
N54 G1 X8.77035 Y110.951 Z-3.77778
N55 G3 X8.451 Y111.27035 CR=0.31935
N56 G1 X-8.451 Z-3.77778
N57 G3 X-8.77035 Y110.951 CR=0.31935
N58 G1 X-8.72535 Y20 Z-3.77778
N59 G2 X-20.44241 Y-19.8943 CR=73.77465
N60 G1 X-20.5269 Y-20.02573 Z-3.77778
N61 G1 X-20.66272 Y-20.23701 Z-3.76988
N62 G1 X-20.798 Y-20.44744 Z-3.74624
N63 G1 X-20.93222 Y-20.65622 Z-3.70693
N64 G1 X-21.06483 Y-20.8625 Z-3.65211
N65 G1 X-21.19532 Y-21.06549 Z-3.582
N66 G1 X-21.32317 Y-21.26437 Z-3.49688
N67 G1 X-21.44788 Y-21.45836 Z-3.39709
N68 G1 X-21.56895 Y-21.6467 Z-3.283
N69 G1 X-21.68592 Y-21.82864 Z-3.15509
N70 G1 X-21.7983 Y-22.00346 Z-3.01385
N71 G1 X-21.90567 Y-22.17048 Z-2.85983
N72 G1 X-22.0076 Y-22.32904 Z-2.69365
N73 G1 X-22.10369 Y-22.4785 Z-2.51597
N74 G1 X-22.19355 Y-22.61829 Z-2.32747
N75 G1 X-22.27684 Y-22.74784 Z-2.12892
N76 G1 X-22.35322 Y-22.86665 Z-1.92108
N77 G1 X-22.42239 Y-22.97425 Z-1.70479
N78 G1 X-22.48408 Y-23.07021 Z-1.48089
N79 G1 X-22.53804 Y-23.15416 Z-1.25028
N80 G1 X-22.58407 Y-23.22576 Z-1.01385
N81 G1 X-22.62198 Y-23.28474 Z-0.77254
N82 G1 X-22.65163 Y-23.33085 Z-0.5273
N83 G1 X-22.67288 Y-23.36391 Z-0.27911
N84 G1 X-22.68567 Y-23.3838 Z-0.02894
N85 G1 X-22.68994 Y-23.39044 Z0.22222
N86 G0 Z5
N87 G0 X59.16389 Y-23.00582
N88 G1 Z0.22222 F333.3
N89 G1 X59.15831 Y-23.00023 Z-0.02894 F600
N90 G1 X59.14158 Y-22.98351 Z-0.27911
N91 G1 X59.11378 Y-22.95572 Z-0.5273
N92 G1 X59.07502 Y-22.91696 Z-0.77254
N93 G1 X59.02544 Y-22.8674 Z-1.01385
N94 G1 X58.96524 Y-22.80722 Z-1.25028
N95 G1 X58.89467 Y-22.73666 Z-1.48089
N96 G1 X58.81399 Y-22.656 Z-1.70479
N97 G1 X58.72353 Y-22.56556 Z-1.92108
N98 G1 X58.62365 Y-22.46569 Z-2.12892
N99 G1 X58.51473 Y-22.3568 Z-2.32747
N100 G1 X58.39721 Y-22.23931 Z-2.51597
N101 G1 X58.27156 Y-22.11368 Z-2.69365
N102 G1 X58.13826 Y-21.98041 Z-2.85983
N103 G1 X57.99784 Y-21.84002 Z-3.01385
N104 G1 X57.85087 Y-21.69308 Z-3.15509
N105 G1 X57.69791 Y-21.54015 Z-3.283
N106 G1 X57.53957 Y-21.38185 Z-3.39709
N107 G1 X57.37648 Y-21.2188 Z-3.49688
N108 G1 X57.20928 Y-21.05163 Z-3.582
N109 G1 X57.03863 Y-20.88102 Z-3.65211
N110 G1 X56.86521 Y-20.70763 Z-3.70693
N111 G1 X56.68969 Y-20.53215 Z-3.74624
N112 G1 X56.51277 Y-20.35527 Z-3.76988
N113 G1 X56.33516 Y-20.17769 Z-3.77778
N114 G1 X56.04676 Y-19.88936
N115 G1 X49.32798 Y-13.17202
N116 G2 X35.58767 Y20 CR=46.91233
N117 G1 X35.63267 Y135.07205 Z-3.77778
N118 G3 X35.2686 Y135.951 CR=1.24301
N119 G1 X33.45098 Y137.7686 Z-3.77778
N120 G3 X32.57203 Y138.13268 CR=1.24304
N121 G1 X-32.57203 Z-3.77778
N122 G3 X-33.45098 Y137.7686 CR=1.24304
N123 G1 X-35.2686 Y135.951 Z-3.77778
N124 G3 X-35.63267 Y135.07205 CR=1.243
N125 G1 X-35.58767 Y20 Z-3.77778
N126 G2 X-49.32798 Y-13.17202 CR=46.91233
N127 G1 X-56.04885 Y-19.89145 Z-3.77778
N128 G1 X-56.15934 Y-20.00192
N129 G1 X-56.33696 Y-20.1795 Z-3.76988
N130 G1 X-56.51388 Y-20.35638 Z-3.74624
N131 G1 X-56.6894 Y-20.53186 Z-3.70693
N132 G1 X-56.86282 Y-20.70525 Z-3.65211
N133 G1 X-57.03347 Y-20.87586 Z-3.582
N134 G1 X-57.20067 Y-21.04302 Z-3.49688
N135 G1 X-57.36376 Y-21.20608 Z-3.39709
N136 G1 X-57.5221 Y-21.36438 Z-3.283
N137 G1 X-57.67505 Y-21.5173 Z-3.15509
N138 G1 X-57.82203 Y-21.66425 Z-3.01385
N139 G1 X-57.96245 Y-21.80463 Z-2.85983
N140 G1 X-58.09574 Y-21.9379 Z-2.69365
N141 G1 X-58.2214 Y-22.06353 Z-2.51597
N142 G1 X-58.33892 Y-22.18103 Z-2.32747
N143 G1 X-58.44784 Y-22.28992 Z-2.12892
N144 G1 X-58.54772 Y-22.38978 Z-1.92108
N145 G1 X-58.63818 Y-22.48022 Z-1.70479
N146 G1 X-58.71886 Y-22.56088 Z-1.48089
N147 G1 X-58.78943 Y-22.63144 Z-1.25028
N148 G1 X-58.84963 Y-22.69162 Z-1.01385
N149 G1 X-58.89921 Y-22.74119 Z-0.77254
N150 G1 X-58.93797 Y-22.77995 Z-0.5273
N151 G1 X-58.96577 Y-22.80774 Z-0.27911
N152 G1 X-58.98249 Y-22.82446 Z-0.02894
N153 G1 X-58.98808 Y-22.83004 Z0.22222
N154 G0 Z5
N155 G0 X96.63351 Y-23.28558
N156 G1 Z-0.17778 F333.3
N157 G1 X96.62898 Y-23.27935 Z-0.41323 F600
N158 G1 X96.6154 Y-23.26067 Z-0.64767
N159 G1 X96.59285 Y-23.22962 Z-0.8801
N160 G1 X96.5614 Y-23.18634 Z-1.10953
N161 G1 X96.52121 Y-23.13102 Z-1.33496
N162 G1 X96.47243 Y-23.06388 Z-1.55544
N163 G1 X96.41529 Y-22.98523 Z-1.77002
N164 G1 X96.35001 Y-22.89539 Z-1.97778
N165 G1 X96.27689 Y-22.79474 Z-2.17783
N166 G1 X96.19624 Y-22.68373 Z-2.36932
N167 G1 X96.10839 Y-22.56283 Z-2.55142
N168 G1 X96.01374 Y-22.43254 Z-2.72336
N169 G1 X95.91267 Y-22.29344 Z-2.8844
N170 G1 X95.80563 Y-22.14611 Z-3.03385
N171 G1 X95.69308 Y-21.9912 Z-3.17107
N172 G1 X95.57549 Y-21.82935 Z-3.29547
N173 G1 X95.45337 Y-21.66127 Z-3.40652
N174 G1 X95.32725 Y-21.48767 Z-3.50374
N175 G1 X95.19765 Y-21.3093 Z-3.58673
N176 G1 X95.06515 Y-21.12692 Z-3.65511
N177 G1 X94.9303 Y-20.94131 Z-3.7086
N178 G1 X94.79368 Y-20.75327 Z-3.74698
N179 G1 X94.65587 Y-20.56361 Z-3.77007
N180 G1 X94.51748 Y-20.37312 Z-3.77778
N181 G1 X94.51289 Y-20.3668
N182 G3 X94.10524 Y-19.88951 CR=4
N183 G1 X68.35786 Y5.85786 Z-3.77778
N184 G2 X62.5 Y20 CR=20
N185 G1 Y146.71584 Z-3.77778
N186 G1 X44.21584 Y164.99979
N187 G1 X-44.21563 Y165
N188 G1 X-62.5 Y146.71584
N189 G1 Y20
N190 G2 X-68.35786 Y5.85786 CR=20
N191 G1 X-88.35786 Y-14.14214 Z-3.77778
N192 G1 X-94.10696 Y-19.89123
N193 G3 X-94.5146 Y-20.36851 CR=4
N194 G1 X-94.60644 Y-20.49492 Z-3.77778
N195 G1 X-94.75407 Y-20.69812 Z-3.76988
N196 G1 X-94.90111 Y-20.90051 Z-3.74624
N197 G1 X-95.047 Y-21.1013 Z-3.70693
N198 G1 X-95.19114 Y-21.2997 Z-3.65211
N199 G1 X-95.33298 Y-21.49492 Z-3.582
N200 G1 X-95.47195 Y-21.6862 Z-3.49688
N201 G1 X-95.60751 Y-21.87277 Z-3.39709
N202 G1 X-95.73911 Y-22.05391 Z-3.283
N203 G1 X-95.86624 Y-22.22889 Z-3.15509
N204 G1 X-95.9884 Y-22.39704 Z-3.01385
N205 G1 X-96.10511 Y-22.55767 Z-2.85983
N206 G1 X-96.21591 Y-22.71016 Z-2.69365
N207 G1 X-96.32035 Y-22.85391 Z-2.51597
N208 G1 X-96.41802 Y-22.98836 Z-2.32747
N209 G1 X-96.50855 Y-23.11296 Z-2.12892
N210 G1 X-96.59157 Y-23.22722 Z-1.92108
N211 G1 X-96.66676 Y-23.33071 Z-1.70479
N212 G1 X-96.73381 Y-23.423 Z-1.48089
N213 G1 X-96.79247 Y-23.50374 Z-1.25028
N214 G1 X-96.84251 Y-23.57261 Z-1.01385
N215 G1 X-96.88371 Y-23.62932 Z-0.77254
N216 G1 X-96.91594 Y-23.67367 Z-0.5273
N217 G1 X-96.93904 Y-23.70547 Z-0.27911
N218 G1 X-96.95294 Y-23.7246 Z-0.02894
N219 G1 X-96.95758 Y-23.73099 Z0.22222
N220 G0 Z5
N221 G0 X22.82563 Y-23.60158
N222 G1 Z-3.55556 F333.3
N223 G1 X22.82136 Y-23.59494 Z-3.80672 F600
N224 G1 X22.80857 Y-23.57505 Z-4.05689
N225 G1 X22.78732 Y-23.54198 Z-4.30508
N226 G1 X22.75768 Y-23.49587 Z-4.55032
N227 G1 X22.71976 Y-23.4369 Z-4.79162
N228 G1 X22.67374 Y-23.3653 Z-5.02805
N229 G1 X22.61977 Y-23.28135 Z-5.25867
N230 G1 X22.55808 Y-23.18539 Z-5.48257
N231 G1 X22.48891 Y-23.07779 Z-5.69886
N232 G1 X22.41253 Y-22.95898 Z-5.9067
N233 G1 X22.32925 Y-22.82942 Z-6.10525
N234 G1 X22.23939 Y-22.68964 Z-6.29374
N235 G1 X22.1433 Y-22.54017 Z-6.47143
N236 G1 X22.04137 Y-22.38161 Z-6.63761
N237 G1 X21.93401 Y-22.21459 Z-6.79162
N238 G1 X21.82162 Y-22.03977 Z-6.93287
N239 G1 X21.70466 Y-21.85782 Z-7.06078
N240 G1 X21.58359 Y-21.66949 Z-7.17486
N241 G1 X21.45888 Y-21.47549 Z-7.27466
N242 G1 X21.33103 Y-21.27661 Z-7.35978
N243 G1 X21.20054 Y-21.07363 Z-7.42989
N244 G1 X21.06793 Y-20.86734 Z-7.4847
N245 G1 X20.93372 Y-20.65857 Z-7.52401
N246 G1 X20.79844 Y-20.44813 Z-7.54766
N247 G1 X20.66262 Y-20.23685 Z-7.55556
N248 G1 X20.44209 Y-19.89381
N249 G2 X8.72535 Y20 CR=73.77465
N250 G1 X8.77035 Y110.951 Z-7.55556
N251 G3 X8.451 Y111.27035 CR=0.31935
N252 G1 X-8.451 Z-7.55556
N253 G3 X-8.77035 Y110.951 CR=0.31935
N254 G1 X-8.72535 Y20 Z-7.55556
N255 G2 X-20.44241 Y-19.8943 CR=73.77465
N256 G1 X-20.5269 Y-20.02573 Z-7.55556
N257 G1 X-20.66272 Y-20.23701 Z-7.54766
N258 G1 X-20.798 Y-20.44744 Z-7.52401
N259 G1 X-20.93222 Y-20.65622 Z-7.4847
N260 G1 X-21.06483 Y-20.8625 Z-7.42989
N261 G1 X-21.19532 Y-21.06549 Z-7.35978
N262 G1 X-21.32317 Y-21.26437 Z-7.27466
N263 G1 X-21.44788 Y-21.45836 Z-7.17486
N264 G1 X-21.56895 Y-21.6467 Z-7.06078
N265 G1 X-21.68592 Y-21.82864 Z-6.93287
N266 G1 X-21.7983 Y-22.00346 Z-6.79162
N267 G1 X-21.90567 Y-22.17048 Z-6.63761
N268 G1 X-22.0076 Y-22.32904 Z-6.47143
N269 G1 X-22.10369 Y-22.4785 Z-6.29374
N270 G1 X-22.19355 Y-22.61829 Z-6.10525
N271 G1 X-22.27684 Y-22.74784 Z-5.9067
N272 G1 X-22.35321 Y-22.86665 Z-5.69886
N273 G1 X-22.42239 Y-22.97425 Z-5.48257
N274 G1 X-22.48408 Y-23.07021 Z-5.25867
N275 G1 X-22.53804 Y-23.15416 Z-5.02805
N276 G1 X-22.58407 Y-23.22576 Z-4.79162
N277 G1 X-22.62198 Y-23.28474 Z-4.55032
N278 G1 X-22.65163 Y-23.33085 Z-4.30508
N279 G1 X-22.67288 Y-23.36391 Z-4.05689
N280 G1 X-22.68567 Y-23.3838 Z-3.80672
N281 G1 X-22.68994 Y-23.39044 Z-3.55556
N282 G0 Z5
N283 G0 X59.16389 Y-23.00582
N284 G1 Z-3.55556 F333.3
N285 G1 X59.15831 Y-23.00023 Z-3.80672 F600
N286 G1 X59.14158 Y-22.98351 Z-4.05689
N287 G1 X59.11378 Y-22.95572 Z-4.30508
N288 G1 X59.07502 Y-22.91696 Z-4.55031
N289 G1 X59.02544 Y-22.8674 Z-4.79162
N290 G1 X58.96524 Y-22.80722 Z-5.02805
N291 G1 X58.89467 Y-22.73666 Z-5.25867
N292 G1 X58.81399 Y-22.656 Z-5.48257
N293 G1 X58.72353 Y-22.56556 Z-5.69886
N294 G1 X58.62365 Y-22.46569 Z-5.9067
N295 G1 X58.51473 Y-22.3568 Z-6.10525
N296 G1 X58.39721 Y-22.23931 Z-6.29374
N297 G1 X58.27156 Y-22.11368 Z-6.47143
N298 G1 X58.13826 Y-21.98041 Z-6.63761
N299 G1 X57.99784 Y-21.84002 Z-6.79162
N300 G1 X57.85087 Y-21.69308 Z-6.93287
N301 G1 X57.69791 Y-21.54015 Z-7.06078
N302 G1 X57.53957 Y-21.38185 Z-7.17486
N303 G1 X57.37648 Y-21.2188 Z-7.27466
N304 G1 X57.20928 Y-21.05163 Z-7.35978
N305 G1 X57.03863 Y-20.88102 Z-7.42989
N306 G1 X56.86521 Y-20.70763 Z-7.4847
N307 G1 X56.68969 Y-20.53215 Z-7.52401
N308 G1 X56.51277 Y-20.35527 Z-7.54766
N309 G1 X56.33516 Y-20.17769 Z-7.55556
N310 G1 X56.04676 Y-19.88936
N311 G1 X49.32798 Y-13.17202
N312 G2 X35.58767 Y20 CR=46.91233
N313 G1 X35.63267 Y135.07205 Z-7.55556
N314 G3 X35.2686 Y135.951 CR=1.24301
N315 G1 X33.45098 Y137.7686 Z-7.55556
N316 G3 X32.57203 Y138.13268 CR=1.24304
N317 G1 X-32.57203 Z-7.55556
N318 G3 X-33.45098 Y137.7686 CR=1.24304
N319 G1 X-35.2686 Y135.951 Z-7.55556
N320 G3 X-35.63267 Y135.07205 CR=1.243
N321 G1 X-35.58767 Y20 Z-7.55556
N322 G2 X-49.32798 Y-13.17202 CR=46.91233
N323 G1 X-56.04885 Y-19.89145 Z-7.55556
N324 G1 X-56.15934 Y-20.00192
N325 G1 X-56.33696 Y-20.1795 Z-7.54766
N326 G1 X-56.51388 Y-20.35638 Z-7.52401
N327 G1 X-56.6894 Y-20.53186 Z-7.4847
N328 G1 X-56.86282 Y-20.70525 Z-7.42989
N329 G1 X-57.03347 Y-20.87586 Z-7.35978
N330 G1 X-57.20067 Y-21.04302 Z-7.27466
N331 G1 X-57.36376 Y-21.20608 Z-7.17486
N332 G1 X-57.5221 Y-21.36438 Z-7.06078
N333 G1 X-57.67505 Y-21.5173 Z-6.93287
N334 G1 X-57.82203 Y-21.66425 Z-6.79162
N335 G1 X-57.96245 Y-21.80463 Z-6.63761
N336 G1 X-58.09574 Y-21.9379 Z-6.47143
N337 G1 X-58.2214 Y-22.06353 Z-6.29374
N338 G1 X-58.33892 Y-22.18103 Z-6.10525
N339 G1 X-58.44784 Y-22.28992 Z-5.9067
N340 G1 X-58.54772 Y-22.38978 Z-5.69886
N341 G1 X-58.63818 Y-22.48022 Z-5.48257
N342 G1 X-58.71886 Y-22.56088 Z-5.25867
N343 G1 X-58.78943 Y-22.63144 Z-5.02805
N344 G1 X-58.84963 Y-22.69162 Z-4.79162
N345 G1 X-58.89921 Y-22.74119 Z-4.55031
N346 G1 X-58.93797 Y-22.77995 Z-4.30508
N347 G1 X-58.96577 Y-22.80774 Z-4.05689
N348 G1 X-58.98249 Y-22.82446 Z-3.80672
N349 G1 X-58.98808 Y-22.83004 Z-3.55556
N350 G0 Z5
N351 G0 X96.63351 Y-23.28558
N352 G1 Z-3.95556 F333.3
N353 G1 X96.62898 Y-23.27935 Z-4.19101 F600
N354 G1 X96.6154 Y-23.26067 Z-4.42545
N355 G1 X96.59285 Y-23.22962 Z-4.65788
N356 G1 X96.5614 Y-23.18634 Z-4.8873
N357 G1 X96.52121 Y-23.13102 Z-5.11274
N358 G1 X96.47243 Y-23.06388 Z-5.33322
N359 G1 X96.41529 Y-22.98523 Z-5.54779
N360 G1 X96.35001 Y-22.89539 Z-5.75556
N361 G1 X96.27689 Y-22.79474 Z-5.95561
N362 G1 X96.19624 Y-22.68373 Z-6.1471
N363 G1 X96.10839 Y-22.56283 Z-6.3292
N364 G1 X96.01374 Y-22.43254 Z-6.50114
N365 G1 X95.91267 Y-22.29344 Z-6.66218
N366 G1 X95.80563 Y-22.14611 Z-6.81163
N367 G1 X95.69308 Y-21.9912 Z-6.94885
N368 G1 X95.57549 Y-21.82935 Z-7.07325
N369 G1 X95.45337 Y-21.66127 Z-7.1843
N370 G1 X95.32725 Y-21.48767 Z-7.28152
N371 G1 X95.19765 Y-21.3093 Z-7.3645
N372 G1 X95.06515 Y-21.12692 Z-7.43289
N373 G1 X94.9303 Y-20.94131 Z-7.48638
N374 G1 X94.79368 Y-20.75327 Z-7.52476
N375 G1 X94.65587 Y-20.56361 Z-7.54785
N376 G1 X94.51748 Y-20.37312 Z-7.55556
N377 G1 X94.51289 Y-20.3668
N378 G3 X94.10524 Y-19.88951 CR=4
N379 G1 X68.35786 Y5.85786 Z-7.55556
N380 G2 X62.5 Y20 CR=20
N381 G1 Y146.71584 Z-7.55556
N382 G1 X44.21584 Y164.99979
N383 G1 X-44.21563 Y165
N384 G1 X-62.5 Y146.71584
N385 G1 Y20
N386 G2 X-68.35786 Y5.85786 CR=20
N387 G1 X-88.35786 Y-14.14214 Z-7.55556
N388 G1 X-94.10696 Y-19.89123
N389 G3 X-94.5146 Y-20.36851 CR=4
N390 G1 X-94.60644 Y-20.49492 Z-7.55556
N391 G1 X-94.75407 Y-20.69812 Z-7.54766
N392 G1 X-94.90111 Y-20.90051 Z-7.52401
N393 G1 X-95.047 Y-21.1013 Z-7.4847
N394 G1 X-95.19114 Y-21.2997 Z-7.42989
N395 G1 X-95.33298 Y-21.49492 Z-7.35978
N396 G1 X-95.47195 Y-21.6862 Z-7.27466
N397 G1 X-95.60751 Y-21.87277 Z-7.17486
N398 G1 X-95.73911 Y-22.05391 Z-7.06078
N399 G1 X-95.86624 Y-22.22889 Z-6.93287
N400 G1 X-95.9884 Y-22.39704 Z-6.79162
N401 G1 X-96.10511 Y-22.55767 Z-6.63761
N402 G1 X-96.21591 Y-22.71016 Z-6.47143
N403 G1 X-96.32035 Y-22.85391 Z-6.29374
N404 G1 X-96.41802 Y-22.98836 Z-6.10525
N405 G1 X-96.50855 Y-23.11296 Z-5.9067
N406 G1 X-96.59157 Y-23.22722 Z-5.69886
N407 G1 X-96.66676 Y-23.33071 Z-5.48257
N408 G1 X-96.73381 Y-23.423 Z-5.25867
N409 G1 X-96.79247 Y-23.50374 Z-5.02805
N410 G1 X-96.84251 Y-23.57261 Z-4.79162
N411 G1 X-96.88371 Y-23.62932 Z-4.55032
N412 G1 X-96.91594 Y-23.67367 Z-4.30508
N413 G1 X-96.93904 Y-23.70547 Z-4.05689
N414 G1 X-96.95294 Y-23.7246 Z-3.80672
N415 G1 X-96.95758 Y-23.73099 Z-3.55556
N416 G0 Z5
N417 G0 X22.82563 Y-23.60158
N418 G1 Z-7.33333 F333.3
N419 G1 X22.82136 Y-23.59494 Z-7.5845 F600
N420 G1 X22.80857 Y-23.57505 Z-7.83467
N421 G1 X22.78732 Y-23.54198 Z-8.08286
N422 G1 X22.75768 Y-23.49587 Z-8.32809
N423 G1 X22.71976 Y-23.4369 Z-8.5694
N424 G1 X22.67374 Y-23.3653 Z-8.80583
N425 G1 X22.61977 Y-23.28135 Z-9.03645
N426 G1 X22.55808 Y-23.18539 Z-9.26035
N427 G1 X22.48891 Y-23.07779 Z-9.47664
N428 G1 X22.41253 Y-22.95898 Z-9.68447
N429 G1 X22.32925 Y-22.82942 Z-9.88303
N430 G1 X22.23939 Y-22.68964 Z-10.07152
N431 G1 X22.1433 Y-22.54017 Z-10.24921
N432 G1 X22.04137 Y-22.38161 Z-10.41539
N433 G1 X21.93401 Y-22.21459 Z-10.5694
N434 G1 X21.82162 Y-22.03977 Z-10.71064
N435 G1 X21.70466 Y-21.85782 Z-10.83856
N436 G1 X21.58359 Y-21.66949 Z-10.95264
N437 G1 X21.45888 Y-21.47549 Z-11.05244
N438 G1 X21.33103 Y-21.27661 Z-11.13756
N439 G1 X21.20054 Y-21.07363 Z-11.20767
N440 G1 X21.06793 Y-20.86734 Z-11.26248
N441 G1 X20.93372 Y-20.65857 Z-11.30179
N442 G1 X20.79844 Y-20.44813 Z-11.32544
N443 G1 X20.66262 Y-20.23685 Z-11.33333
N444 G1 X20.44209 Y-19.89381
N445 G2 X8.72535 Y20 CR=73.77465
N446 G1 X8.77035 Y110.951 Z-11.33333
N447 G3 X8.451 Y111.27035 CR=0.31935
N448 G1 X-8.451 Z-11.33333
N449 G3 X-8.77035 Y110.951 CR=0.31935
N450 G1 X-8.72535 Y20 Z-11.33333
N451 G2 X-20.44241 Y-19.8943 CR=73.77465
N452 G1 X-20.5269 Y-20.02573 Z-11.33333
N453 G1 X-20.66272 Y-20.23701 Z-11.32544
N454 G1 X-20.798 Y-20.44744 Z-11.30179
N455 G1 X-20.93222 Y-20.65622 Z-11.26248
N456 G1 X-21.06483 Y-20.8625 Z-11.20767
N457 G1 X-21.19532 Y-21.06549 Z-11.13756
N458 G1 X-21.32317 Y-21.26437 Z-11.05244
N459 G1 X-21.44788 Y-21.45836 Z-10.95264
N460 G1 X-21.56895 Y-21.6467 Z-10.83856
N461 G1 X-21.68592 Y-21.82864 Z-10.71064
N462 G1 X-21.7983 Y-22.00346 Z-10.5694
N463 G1 X-21.90567 Y-22.17048 Z-10.41539
N464 G1 X-22.0076 Y-22.32904 Z-10.24921
N465 G1 X-22.10369 Y-22.4785 Z-10.07152
N466 G1 X-22.19355 Y-22.61829 Z-9.88303
N467 G1 X-22.27684 Y-22.74784 Z-9.68447
N468 G1 X-22.35321 Y-22.86665 Z-9.47664
N469 G1 X-22.42239 Y-22.97425 Z-9.26035
N470 G1 X-22.48408 Y-23.07021 Z-9.03645
N471 G1 X-22.53804 Y-23.15416 Z-8.80583
N472 G1 X-22.58407 Y-23.22576 Z-8.5694
N473 G1 X-22.62198 Y-23.28474 Z-8.32809
N474 G1 X-22.65163 Y-23.33085 Z-8.08286
N475 G1 X-22.67288 Y-23.36391 Z-7.83467
N476 G1 X-22.68567 Y-23.3838 Z-7.5845
N477 G1 X-22.68994 Y-23.39044 Z-7.33333
N478 G0 Z5
N479 G0 X59.16389 Y-23.00582
N480 G1 Z-7.33333 F333.3
N481 G1 X59.15831 Y-23.00023 Z-7.5845 F600
N482 G1 X59.14158 Y-22.98351 Z-7.83467
N483 G1 X59.11378 Y-22.95572 Z-8.08286
N484 G1 X59.07502 Y-22.91696 Z-8.32809
N485 G1 X59.02544 Y-22.8674 Z-8.5694
N486 G1 X58.96524 Y-22.80722 Z-8.80583
N487 G1 X58.89467 Y-22.73666 Z-9.03645
N488 G1 X58.81399 Y-22.656 Z-9.26035
N489 G1 X58.72353 Y-22.56556 Z-9.47664
N490 G1 X58.62365 Y-22.46569 Z-9.68447
N491 G1 X58.51473 Y-22.3568 Z-9.88303
N492 G1 X58.39721 Y-22.23931 Z-10.07152
N493 G1 X58.27156 Y-22.11368 Z-10.24921
N494 G1 X58.13826 Y-21.98041 Z-10.41539
N495 G1 X57.99784 Y-21.84002 Z-10.5694
N496 G1 X57.85087 Y-21.69308 Z-10.71064
N497 G1 X57.69791 Y-21.54015 Z-10.83856
N498 G1 X57.53957 Y-21.38185 Z-10.95264
N499 G1 X57.37648 Y-21.2188 Z-11.05244
N500 G1 X57.20928 Y-21.05163 Z-11.13756
N501 G1 X57.03863 Y-20.88102 Z-11.20767
N502 G1 X56.86521 Y-20.70763 Z-11.26248
N503 G1 X56.68969 Y-20.53215 Z-11.30179
N504 G1 X56.51277 Y-20.35527 Z-11.32544
N505 G1 X56.33516 Y-20.17769 Z-11.33333
N506 G1 X56.04676 Y-19.88936
N507 G1 X49.32798 Y-13.17202
N508 G2 X35.58767 Y20 CR=46.91233
N509 G1 X35.63267 Y135.07205 Z-11.33333
N510 G3 X35.2686 Y135.951 CR=1.24301
N511 G1 X33.45098 Y137.7686 Z-11.33333
N512 G3 X32.57203 Y138.13268 CR=1.24304
N513 G1 X-32.57203 Z-11.33333
N514 G3 X-33.45098 Y137.7686 CR=1.24304
N515 G1 X-35.2686 Y135.951 Z-11.33333
N516 G3 X-35.63267 Y135.07205 CR=1.243
N517 G1 X-35.58767 Y20 Z-11.33333
N518 G2 X-49.32798 Y-13.17202 CR=46.91233
N519 G1 X-56.04885 Y-19.89145 Z-11.33333
N520 G1 X-56.15934 Y-20.00192
N521 G1 X-56.33696 Y-20.1795 Z-11.32544
N522 G1 X-56.51388 Y-20.35638 Z-11.30179
N523 G1 X-56.6894 Y-20.53186 Z-11.26248
N524 G1 X-56.86282 Y-20.70525 Z-11.20767
N525 G1 X-57.03347 Y-20.87586 Z-11.13756
N526 G1 X-57.20067 Y-21.04302 Z-11.05244
N527 G1 X-57.36376 Y-21.20608 Z-10.95264
N528 G1 X-57.5221 Y-21.36438 Z-10.83856
N529 G1 X-57.67505 Y-21.5173 Z-10.71064
N530 G1 X-57.82203 Y-21.66425 Z-10.5694
N531 G1 X-57.96245 Y-21.80463 Z-10.41539
N532 G1 X-58.09574 Y-21.9379 Z-10.24921
N533 G1 X-58.2214 Y-22.06353 Z-10.07152
N534 G1 X-58.33892 Y-22.18103 Z-9.88303
N535 G1 X-58.44784 Y-22.28992 Z-9.68447
N536 G1 X-58.54772 Y-22.38978 Z-9.47664
N537 G1 X-58.63818 Y-22.48022 Z-9.26035
N538 G1 X-58.71886 Y-22.56088 Z-9.03645
N539 G1 X-58.78943 Y-22.63144 Z-8.80583
N540 G1 X-58.84963 Y-22.69162 Z-8.5694
N541 G1 X-58.89921 Y-22.74119 Z-8.32809
N542 G1 X-58.93797 Y-22.77995 Z-8.08286
N543 G1 X-58.96577 Y-22.80774 Z-7.83467
N544 G1 X-58.98249 Y-22.82446 Z-7.5845
N545 G1 X-58.98808 Y-22.83004 Z-7.33333
N546 G0 Z5
N547 G0 X96.63351 Y-23.28558
N548 G1 Z-7.73333 F333.3
N549 G1 X96.62898 Y-23.27935 Z-7.96878 F600
N550 G1 X96.6154 Y-23.26067 Z-8.20323
N551 G1 X96.59285 Y-23.22962 Z-8.43566
N552 G1 X96.5614 Y-23.18634 Z-8.66508
N553 G1 X96.52121 Y-23.13102 Z-8.89052
N554 G1 X96.47243 Y-23.06388 Z-9.11099
N555 G1 X96.41529 Y-22.98523 Z-9.32557
N556 G1 X96.35001 Y-22.89539 Z-9.53333
N557 G1 X96.27689 Y-22.79474 Z-9.73339
N558 G1 X96.19624 Y-22.68373 Z-9.92487
N559 G1 X96.10839 Y-22.56283 Z-10.10698
N560 G1 X96.01374 Y-22.43254 Z-10.27892
N561 G1 X95.91267 Y-22.29344 Z-10.43996
N562 G1 X95.80563 Y-22.14611 Z-10.58941
N563 G1 X95.69308 Y-21.9912 Z-10.72662
N564 G1 X95.57549 Y-21.82935 Z-10.85102
N565 G1 X95.45337 Y-21.66127 Z-10.96207
N566 G1 X95.32725 Y-21.48767 Z-11.0593
N567 G1 X95.19765 Y-21.3093 Z-11.14228
N568 G1 X95.06515 Y-21.12692 Z-11.21067
N569 G1 X94.9303 Y-20.94131 Z-11.26416
N570 G1 X94.79368 Y-20.75327 Z-11.30253
N571 G1 X94.65587 Y-20.56361 Z-11.32563
N572 G1 X94.51748 Y-20.37312 Z-11.33333
N573 G1 X94.51289 Y-20.3668
N574 G3 X94.10524 Y-19.88951 CR=4
N575 G1 X68.35786 Y5.85786 Z-11.33333
N576 G2 X62.5 Y20 CR=20
N577 G1 Y146.71584 Z-11.33333
N578 G1 X44.21584 Y164.99979
N579 G1 X-44.21563 Y165
N580 G1 X-62.5 Y146.71584
N581 G1 Y20
N582 G2 X-68.35786 Y5.85786 CR=20
N583 G1 X-88.35786 Y-14.14214 Z-11.33333
N584 G1 X-94.10696 Y-19.89123
N585 G3 X-94.5146 Y-20.36851 CR=4
N586 G1 X-94.60644 Y-20.49492 Z-11.33333
N587 G1 X-94.75407 Y-20.69812 Z-11.32544
N588 G1 X-94.90111 Y-20.90051 Z-11.30179
N589 G1 X-95.047 Y-21.1013 Z-11.26248
N590 G1 X-95.19114 Y-21.2997 Z-11.20767
N591 G1 X-95.33298 Y-21.49492 Z-11.13756
N592 G1 X-95.47195 Y-21.6862 Z-11.05244
N593 G1 X-95.60751 Y-21.87277 Z-10.95264
N594 G1 X-95.73911 Y-22.05391 Z-10.83856
N595 G1 X-95.86624 Y-22.22889 Z-10.71064
N596 G1 X-95.9884 Y-22.39704 Z-10.5694
N597 G1 X-96.10511 Y-22.55767 Z-10.41539
N598 G1 X-96.21591 Y-22.71016 Z-10.24921
N599 G1 X-96.32035 Y-22.85391 Z-10.07152
N600 G1 X-96.41802 Y-22.98836 Z-9.88303
N601 G1 X-96.50855 Y-23.11296 Z-9.68447
N602 G1 X-96.59157 Y-23.22722 Z-9.47664
N603 G1 X-96.66676 Y-23.33071 Z-9.26035
N604 G1 X-96.73381 Y-23.423 Z-9.03645
N605 G1 X-96.79247 Y-23.50374 Z-8.80583
N606 G1 X-96.84251 Y-23.57261 Z-8.5694
N607 G1 X-96.88371 Y-23.62932 Z-8.32809
N608 G1 X-96.91594 Y-23.67367 Z-8.08286
N609 G1 X-96.93904 Y-23.70547 Z-7.83467
N610 G1 X-96.95294 Y-23.7246 Z-7.5845
N611 G1 X-96.95758 Y-23.73099 Z-7.33333
N612 G0 Z5
N613 G0 X22.82563 Y-23.60158
N614 G1 Z-11.11111 F333.3
N615 G1 X22.82136 Y-23.59494 Z-11.36227 F600
N616 G1 X22.80857 Y-23.57505 Z-11.61244
N617 G1 X22.78732 Y-23.54198 Z-11.86064
N618 G1 X22.75768 Y-23.49587 Z-12.10587
N619 G1 X22.71976 Y-23.4369 Z-12.34718
N620 G1 X22.67374 Y-23.3653 Z-12.58361
N621 G1 X22.61977 Y-23.28135 Z-12.81423
N622 G1 X22.55808 Y-23.18539 Z-13.03813
N623 G1 X22.48891 Y-23.07779 Z-13.25442
N624 G1 X22.41253 Y-22.95898 Z-13.46225
N625 G1 X22.32925 Y-22.82942 Z-13.66081
N626 G1 X22.23939 Y-22.68964 Z-13.8493
N627 G1 X22.1433 Y-22.54017 Z-14.02699
N628 G1 X22.04137 Y-22.38161 Z-14.19316
N629 G1 X21.93401 Y-22.21459 Z-14.34718
N630 G1 X21.82162 Y-22.03977 Z-14.48842
N631 G1 X21.70466 Y-21.85782 Z-14.61634
N632 G1 X21.58359 Y-21.66949 Z-14.73042
N633 G1 X21.45888 Y-21.47549 Z-14.83022
N634 G1 X21.33103 Y-21.27661 Z-14.91534
N635 G1 X21.20054 Y-21.07363 Z-14.98544
N636 G1 X21.06793 Y-20.86734 Z-15.04026
N637 G1 X20.93372 Y-20.65857 Z-15.07957
N638 G1 X20.79844 Y-20.44813 Z-15.10322
N639 G1 X20.66262 Y-20.23685 Z-15.11111
N640 G1 X20.44209 Y-19.89381
N641 G2 X8.72535 Y20 CR=73.77465
N642 G1 X8.77035 Y110.951 Z-15.11111
N643 G3 X8.451 Y111.27035 CR=0.31935
N644 G1 X-8.451 Z-15.11111
N645 G3 X-8.77035 Y110.951 CR=0.31935
N646 G1 X-8.72535 Y20 Z-15.11111
N647 G2 X-20.44241 Y-19.8943 CR=73.77465
N648 G1 X-20.5269 Y-20.02573 Z-15.11111
N649 G1 X-20.66272 Y-20.23701 Z-15.10322
N650 G1 X-20.798 Y-20.44744 Z-15.07957
N651 G1 X-20.93222 Y-20.65622 Z-15.04026
N652 G1 X-21.06483 Y-20.8625 Z-14.98544
N653 G1 X-21.19532 Y-21.06549 Z-14.91534
N654 G1 X-21.32317 Y-21.26437 Z-14.83022
N655 G1 X-21.44788 Y-21.45836 Z-14.73042
N656 G1 X-21.56895 Y-21.6467 Z-14.61634
N657 G1 X-21.68592 Y-21.82864 Z-14.48842
N658 G1 X-21.7983 Y-22.00346 Z-14.34718
N659 G1 X-21.90567 Y-22.17048 Z-14.19316
N660 G1 X-22.0076 Y-22.32904 Z-14.02699
N661 G1 X-22.10369 Y-22.4785 Z-13.8493
N662 G1 X-22.19355 Y-22.61829 Z-13.66081
N663 G1 X-22.27684 Y-22.74784 Z-13.46225
N664 G1 X-22.35322 Y-22.86665 Z-13.25442
N665 G1 X-22.42239 Y-22.97425 Z-13.03813
N666 G1 X-22.48408 Y-23.07021 Z-12.81423
N667 G1 X-22.53804 Y-23.15416 Z-12.58361
N668 G1 X-22.58407 Y-23.22576 Z-12.34718
N669 G1 X-22.62198 Y-23.28474 Z-12.10587
N670 G1 X-22.65163 Y-23.33085 Z-11.86064
N671 G1 X-22.67288 Y-23.36391 Z-11.61244
N672 G1 X-22.68567 Y-23.3838 Z-11.36227
N673 G1 X-22.68994 Y-23.39044 Z-11.11111
N674 G0 Z5
N675 G0 X59.16389 Y-23.00582
N676 G1 Z-11.11111 F333.3
N677 G1 X59.15831 Y-23.00023 Z-11.36227 F600
N678 G1 X59.14158 Y-22.98351 Z-11.61244
N679 G1 X59.11378 Y-22.95572 Z-11.86064
N680 G1 X59.07502 Y-22.91697 Z-12.10587
N681 G1 X59.02544 Y-22.8674 Z-12.34718
N682 G1 X58.96524 Y-22.80722 Z-12.58361
N683 G1 X58.89467 Y-22.73666 Z-12.81423
N684 G1 X58.81399 Y-22.656 Z-13.03813
N685 G1 X58.72353 Y-22.56556 Z-13.25442
N686 G1 X58.62365 Y-22.46569 Z-13.46225
N687 G1 X58.51473 Y-22.3568 Z-13.66081
N688 G1 X58.39721 Y-22.23931 Z-13.8493
N689 G1 X58.27156 Y-22.11368 Z-14.02698
N690 G1 X58.13826 Y-21.98041 Z-14.19316
N691 G1 X57.99784 Y-21.84002 Z-14.34718
N692 G1 X57.85087 Y-21.69308 Z-14.48842
N693 G1 X57.69791 Y-21.54015 Z-14.61634
N694 G1 X57.53957 Y-21.38185 Z-14.73042
N695 G1 X57.37648 Y-21.2188 Z-14.83022
N696 G1 X57.20928 Y-21.05163 Z-14.91534
N697 G1 X57.03863 Y-20.88102 Z-14.98544
N698 G1 X56.86521 Y-20.70763 Z-15.04026
N699 G1 X56.68969 Y-20.53215 Z-15.07957
N700 G1 X56.51277 Y-20.35527 Z-15.10322
N701 G1 X56.33516 Y-20.17769 Z-15.11111
N702 G1 X56.04676 Y-19.88936
N703 G1 X49.32798 Y-13.17202
N704 G2 X35.58767 Y20 CR=46.91233
N705 G1 X35.63267 Y135.07205 Z-15.11111
N706 G3 X35.2686 Y135.951 CR=1.24301
N707 G1 X33.45098 Y137.7686 Z-15.11111
N708 G3 X32.57203 Y138.13268 CR=1.24304
N709 G1 X-32.57203 Z-15.11111
N710 G3 X-33.45098 Y137.7686 CR=1.24304
N711 G1 X-35.2686 Y135.951 Z-15.11111
N712 G3 X-35.63267 Y135.07205 CR=1.243
N713 G1 X-35.58767 Y20 Z-15.11111
N714 G2 X-49.32798 Y-13.17202 CR=46.91233
N715 G1 X-56.04885 Y-19.89145 Z-15.11111
N716 G1 X-56.15934 Y-20.00192
N717 G1 X-56.33696 Y-20.1795 Z-15.10322
N718 G1 X-56.51388 Y-20.35638 Z-15.07957
N719 G1 X-56.6894 Y-20.53186 Z-15.04026
N720 G1 X-56.86282 Y-20.70525 Z-14.98544
N721 G1 X-57.03347 Y-20.87586 Z-14.91534
N722 G1 X-57.20067 Y-21.04302 Z-14.83022
N723 G1 X-57.36376 Y-21.20608 Z-14.73042
N724 G1 X-57.5221 Y-21.36438 Z-14.61634
N725 G1 X-57.67505 Y-21.5173 Z-14.48842
N726 G1 X-57.82203 Y-21.66425 Z-14.34718
N727 G1 X-57.96245 Y-21.80463 Z-14.19316
N728 G1 X-58.09574 Y-21.9379 Z-14.02698
N729 G1 X-58.2214 Y-22.06353 Z-13.8493
N730 G1 X-58.33892 Y-22.18103 Z-13.66081
N731 G1 X-58.44784 Y-22.28992 Z-13.46225
N732 G1 X-58.54772 Y-22.38978 Z-13.25442
N733 G1 X-58.63818 Y-22.48022 Z-13.03813
N734 G1 X-58.71886 Y-22.56088 Z-12.81423
N735 G1 X-58.78943 Y-22.63144 Z-12.58361
N736 G1 X-58.84963 Y-22.69162 Z-12.34718
N737 G1 X-58.89921 Y-22.74119 Z-12.10587
N738 G1 X-58.93797 Y-22.77995 Z-11.86064
N739 G1 X-58.96577 Y-22.80774 Z-11.61244
N740 G1 X-58.98249 Y-22.82446 Z-11.36227
N741 G1 X-58.98808 Y-22.83004 Z-11.11111
N742 G0 Z5
N743 G0 X96.63351 Y-23.28558
N744 G1 Z-11.51111 F333.3
N745 G1 X96.62898 Y-23.27935 Z-11.74656 F600
N746 G1 X96.6154 Y-23.26067 Z-11.98101
N747 G1 X96.59285 Y-23.22962 Z-12.21344
N748 G1 X96.5614 Y-23.18634 Z-12.44286
N749 G1 X96.52121 Y-23.13102 Z-12.66829
N750 G1 X96.47243 Y-23.06388 Z-12.88877
N751 G1 X96.41529 Y-22.98523 Z-13.10335
N752 G1 X96.35001 Y-22.89539 Z-13.31111
N753 G1 X96.27689 Y-22.79474 Z-13.51116
N754 G1 X96.19624 Y-22.68373 Z-13.70265
N755 G1 X96.10839 Y-22.56282 Z-13.88476
N756 G1 X96.01374 Y-22.43254 Z-14.0567
N757 G1 X95.91267 Y-22.29344 Z-14.21773
N758 G1 X95.80563 Y-22.14611 Z-14.36718
N759 G1 X95.69308 Y-21.9912 Z-14.5044
N760 G1 X95.57549 Y-21.82935 Z-14.6288
N761 G1 X95.45337 Y-21.66127 Z-14.73985
N762 G1 X95.32725 Y-21.48767 Z-14.83708
N763 G1 X95.19765 Y-21.3093 Z-14.92006
N764 G1 X95.06515 Y-21.12692 Z-14.98844
N765 G1 X94.9303 Y-20.94131 Z-15.04194
N766 G1 X94.79368 Y-20.75327 Z-15.08031
N767 G1 X94.65587 Y-20.56361 Z-15.1034
N768 G1 X94.51748 Y-20.37312 Z-15.11111
N769 G1 X94.51289 Y-20.3668
N770 G3 X94.10524 Y-19.88951 CR=4
N771 G1 X68.35786 Y5.85786 Z-15.11111
N772 G2 X62.5 Y20 CR=20
N773 G1 Y146.71584 Z-15.11111
N774 G1 X44.21584 Y164.99979
N775 G1 X-44.21563 Y165
N776 G1 X-62.5 Y146.71584
N777 G1 Y20
N778 G2 X-68.35786 Y5.85786 CR=20
N779 G1 X-88.35786 Y-14.14214 Z-15.11111
N780 G1 X-94.10696 Y-19.89123
N781 G3 X-94.5146 Y-20.36851 CR=4
N782 G1 X-94.60644 Y-20.49492 Z-15.11111
N783 G1 X-94.75407 Y-20.69812 Z-15.10322
N784 G1 X-94.90111 Y-20.90051 Z-15.07957
N785 G1 X-95.047 Y-21.1013 Z-15.04026
N786 G1 X-95.19114 Y-21.2997 Z-14.98544
N787 G1 X-95.33298 Y-21.49492 Z-14.91534
N788 G1 X-95.47195 Y-21.6862 Z-14.83022
N789 G1 X-95.60751 Y-21.87277 Z-14.73042
N790 G1 X-95.73911 Y-22.05391 Z-14.61634
N791 G1 X-95.86624 Y-22.22889 Z-14.48842
N792 G1 X-95.9884 Y-22.39704 Z-14.34718
N793 G1 X-96.10511 Y-22.55767 Z-14.19316
N794 G1 X-96.21591 Y-22.71016 Z-14.02699
N795 G1 X-96.32035 Y-22.85391 Z-13.8493
N796 G1 X-96.41802 Y-22.98836 Z-13.66081
N797 G1 X-96.50855 Y-23.11296 Z-13.46225
N798 G1 X-96.59157 Y-23.22722 Z-13.25442
N799 G1 X-96.66676 Y-23.33071 Z-13.03813
N800 G1 X-96.73382 Y-23.423 Z-12.81423
N801 G1 X-96.79247 Y-23.50374 Z-12.58361
N802 G1 X-96.84251 Y-23.57261 Z-12.34718
N803 G1 X-96.88371 Y-23.62932 Z-12.10587
N804 G1 X-96.91594 Y-23.67367 Z-11.86064
N805 G1 X-96.93904 Y-23.70547 Z-11.61244
N806 G1 X-96.95294 Y-23.7246 Z-11.36227
N807 G1 X-96.95758 Y-23.73099 Z-11.11111
N808 G0 Z5
N809 G0 X22.82563 Y-23.60158
N810 G1 Z-14.88889 F333.3
N811 G1 X22.82136 Y-23.59494 Z-15.14005 F600
N812 G1 X22.80857 Y-23.57505 Z-15.39022
N813 G1 X22.78732 Y-23.54198 Z-15.63841
N814 G1 X22.75768 Y-23.49587 Z-15.88365
N815 G1 X22.71976 Y-23.4369 Z-16.12496
N816 G1 X22.67374 Y-23.3653 Z-16.36139
N817 G1 X22.61977 Y-23.28135 Z-16.59201
N818 G1 X22.55808 Y-23.18539 Z-16.8159
N819 G1 X22.48891 Y-23.07779 Z-17.0322
N820 G1 X22.41253 Y-22.95898 Z-17.24003
N821 G1 X22.32925 Y-22.82942 Z-17.43859
N822 G1 X22.23939 Y-22.68964 Z-17.62708
N823 G1 X22.1433 Y-22.54017 Z-17.80476
N824 G1 X22.04137 Y-22.38161 Z-17.97094
N825 G1 X21.93401 Y-22.21459 Z-18.12496
N826 G1 X21.82162 Y-22.03977 Z-18.2662
N827 G1 X21.70466 Y-21.85782 Z-18.39412
N828 G1 X21.58359 Y-21.66949 Z-18.5082
N829 G1 X21.45888 Y-21.47549 Z-18.608
N830 G1 X21.33103 Y-21.27661 Z-18.69312
N831 G1 X21.20054 Y-21.07363 Z-18.76322
N832 G1 X21.06793 Y-20.86734 Z-18.81804
N833 G1 X20.93372 Y-20.65857 Z-18.85735
N834 G1 X20.79844 Y-20.44813 Z-18.881
N835 G1 X20.66262 Y-20.23685 Z-18.88889
N836 G1 X20.44209 Y-19.89381
N837 G2 X8.72535 Y20 CR=73.77465
N838 G1 X8.77035 Y110.951 Z-18.88889
N839 G3 X8.451 Y111.27035 CR=0.31935
N840 G1 X-8.451 Z-18.88889
N841 G3 X-8.77035 Y110.951 CR=0.31935
N842 G1 X-8.72535 Y20 Z-18.88889
N843 G2 X-20.44241 Y-19.8943 CR=73.77465
N844 G1 X-20.5269 Y-20.02573 Z-18.88889
N845 G1 X-20.66272 Y-20.23701 Z-18.881
N846 G1 X-20.798 Y-20.44744 Z-18.85735
N847 G1 X-20.93222 Y-20.65622 Z-18.81804
N848 G1 X-21.06483 Y-20.8625 Z-18.76322
N849 G1 X-21.19532 Y-21.06549 Z-18.69312
N850 G1 X-21.32317 Y-21.26437 Z-18.608
N851 G1 X-21.44788 Y-21.45836 Z-18.5082
N852 G1 X-21.56895 Y-21.6467 Z-18.39412
N853 G1 X-21.68592 Y-21.82864 Z-18.2662
N854 G1 X-21.7983 Y-22.00346 Z-18.12496
N855 G1 X-21.90567 Y-22.17048 Z-17.97094
N856 G1 X-22.0076 Y-22.32904 Z-17.80476
N857 G1 X-22.10369 Y-22.4785 Z-17.62708
N858 G1 X-22.19355 Y-22.61829 Z-17.43859
N859 G1 X-22.27684 Y-22.74784 Z-17.24003
N860 G1 X-22.35322 Y-22.86665 Z-17.0322
N861 G1 X-22.42239 Y-22.97425 Z-16.8159
N862 G1 X-22.48408 Y-23.07021 Z-16.59201
N863 G1 X-22.53804 Y-23.15416 Z-16.36139
N864 G1 X-22.58407 Y-23.22576 Z-16.12496
N865 G1 X-22.62198 Y-23.28474 Z-15.88365
N866 G1 X-22.65163 Y-23.33085 Z-15.63841
N867 G1 X-22.67288 Y-23.36391 Z-15.39022
N868 G1 X-22.68567 Y-23.3838 Z-15.14005
N869 G1 X-22.68994 Y-23.39044 Z-14.88889
N870 G0 Z5
N871 G0 X59.16389 Y-23.00582
N872 G1 Z-14.88889 F333.3
N873 G1 X59.15831 Y-23.00023 Z-15.14005 F600
N874 G1 X59.14158 Y-22.98351 Z-15.39022
N875 G1 X59.11378 Y-22.95572 Z-15.63841
N876 G1 X59.07502 Y-22.91697 Z-15.88365
N877 G1 X59.02544 Y-22.8674 Z-16.12496
N878 G1 X58.96524 Y-22.80722 Z-16.36139
N879 G1 X58.89467 Y-22.73666 Z-16.59201
N880 G1 X58.81399 Y-22.656 Z-16.8159
N881 G1 X58.72353 Y-22.56556 Z-17.0322
N882 G1 X58.62365 Y-22.46569 Z-17.24003
N883 G1 X58.51473 Y-22.3568 Z-17.43858
N884 G1 X58.39721 Y-22.23931 Z-17.62708
N885 G1 X58.27156 Y-22.11368 Z-17.80476
N886 G1 X58.13826 Y-21.98041 Z-17.97094
N887 G1 X57.99784 Y-21.84002 Z-18.12496
N888 G1 X57.85087 Y-21.69308 Z-18.2662
N889 G1 X57.69791 Y-21.54015 Z-18.39412
N890 G1 X57.53957 Y-21.38185 Z-18.5082
N891 G1 X57.37648 Y-21.2188 Z-18.608
N892 G1 X57.20928 Y-21.05163 Z-18.69312
N893 G1 X57.03863 Y-20.88102 Z-18.76322
N894 G1 X56.86521 Y-20.70763 Z-18.81804
N895 G1 X56.68969 Y-20.53215 Z-18.85735
N896 G1 X56.51277 Y-20.35527 Z-18.881
N897 G1 X56.33516 Y-20.17769 Z-18.88889
N898 G1 X56.04676 Y-19.88936
N899 G1 X49.32798 Y-13.17202
N900 G2 X35.58767 Y20 CR=46.91233
N901 G1 X35.63267 Y135.07205 Z-18.88889
N902 G3 X35.2686 Y135.951 CR=1.24301
N903 G1 X33.45098 Y137.7686 Z-18.88889
N904 G3 X32.57203 Y138.13268 CR=1.24304
N905 G1 X-32.57203 Z-18.88889
N906 G3 X-33.45098 Y137.7686 CR=1.24304
N907 G1 X-35.2686 Y135.951 Z-18.88889
N908 G3 X-35.63267 Y135.07205 CR=1.243
N909 G1 X-35.58767 Y20 Z-18.88889
N910 G2 X-49.32798 Y-13.17202 CR=46.91233
N911 G1 X-56.04885 Y-19.89145 Z-18.88889
N912 G1 X-56.15934 Y-20.00192
N913 G1 X-56.33696 Y-20.1795 Z-18.881
N914 G1 X-56.51388 Y-20.35638 Z-18.85735
N915 G1 X-56.6894 Y-20.53186 Z-18.81804
N916 G1 X-56.86282 Y-20.70525 Z-18.76322
N917 G1 X-57.03347 Y-20.87586 Z-18.69312
N918 G1 X-57.20067 Y-21.04302 Z-18.608
N919 G1 X-57.36376 Y-21.20608 Z-18.5082
N920 G1 X-57.5221 Y-21.36438 Z-18.39412
N921 G1 X-57.67505 Y-21.5173 Z-18.2662
N922 G1 X-57.82203 Y-21.66425 Z-18.12496
N923 G1 X-57.96245 Y-21.80463 Z-17.97094
N924 G1 X-58.09574 Y-21.9379 Z-17.80476
N925 G1 X-58.2214 Y-22.06353 Z-17.62708
N926 G1 X-58.33892 Y-22.18103 Z-17.43858
N927 G1 X-58.44784 Y-22.28992 Z-17.24003
N928 G1 X-58.54772 Y-22.38978 Z-17.0322
N929 G1 X-58.63818 Y-22.48022 Z-16.8159
N930 G1 X-58.71886 Y-22.56088 Z-16.59201
N931 G1 X-58.78943 Y-22.63144 Z-16.36139
N932 G1 X-58.84963 Y-22.69162 Z-16.12496
N933 G1 X-58.89921 Y-22.74119 Z-15.88365
N934 G1 X-58.93797 Y-22.77995 Z-15.63841
N935 G1 X-58.96577 Y-22.80774 Z-15.39022
N936 G1 X-58.98249 Y-22.82446 Z-15.14005
N937 G1 X-58.98808 Y-22.83004 Z-14.88889
N938 G0 Z5
N939 G0 X96.63351 Y-23.28558
N940 G1 Z-15.28889 F333.3
N941 G1 X96.62898 Y-23.27935 Z-15.52434 F600
N942 G1 X96.6154 Y-23.26067 Z-15.75878
N943 G1 X96.59285 Y-23.22962 Z-15.99121
N944 G1 X96.5614 Y-23.18634 Z-16.22064
N945 G1 X96.52121 Y-23.13102 Z-16.44607
N946 G1 X96.47243 Y-23.06388 Z-16.66655
N947 G1 X96.41529 Y-22.98523 Z-16.88113
N948 G1 X96.35001 Y-22.89539 Z-17.08889
N949 G1 X96.27689 Y-22.79474 Z-17.28894
N950 G1 X96.19624 Y-22.68373 Z-17.48043
N951 G1 X96.10839 Y-22.56283 Z-17.66253
N952 G1 X96.01374 Y-22.43254 Z-17.83447
N953 G1 X95.91267 Y-22.29344 Z-17.99551
N954 G1 X95.80563 Y-22.14612 Z-18.14496
N955 G1 X95.69308 Y-21.9912 Z-18.28218
N956 G1 X95.57549 Y-21.82935 Z-18.40658
N957 G1 X95.45337 Y-21.66127 Z-18.51763
N958 G1 X95.32725 Y-21.48767 Z-18.61486
N959 G1 X95.19765 Y-21.3093 Z-18.69784
N960 G1 X95.06515 Y-21.12692 Z-18.76622
N961 G1 X94.9303 Y-20.94131 Z-18.81972
N962 G1 X94.79368 Y-20.75327 Z-18.85809
N963 G1 X94.65587 Y-20.56361 Z-18.88118
N964 G1 X94.51748 Y-20.37312 Z-18.88889
N965 G1 X94.51289 Y-20.3668
N966 G3 X94.10524 Y-19.88951 CR=4
N967 G1 X68.35786 Y5.85786 Z-18.88889
N968 G2 X62.5 Y20 CR=20
N969 G1 Y146.71584 Z-18.88889
N970 G1 X44.21584 Y164.99979
N971 G1 X-44.21563 Y165
N972 G1 X-62.5 Y146.71584
N973 G1 Y20
N974 G2 X-68.35786 Y5.85786 CR=20
N975 G1 X-88.35786 Y-14.14214 Z-18.88889
N976 G1 X-94.10696 Y-19.89123
N977 G3 X-94.5146 Y-20.36851 CR=4
N978 G1 X-94.60644 Y-20.49492 Z-18.88889
N979 G1 X-94.75407 Y-20.69812 Z-18.881
N980 G1 X-94.90111 Y-20.90051 Z-18.85735
N981 G1 X-95.047 Y-21.1013 Z-18.81804
N982 G1 X-95.19114 Y-21.2997 Z-18.76322
N983 G1 X-95.33298 Y-21.49492 Z-18.69312
N984 G1 X-95.47195 Y-21.6862 Z-18.608
N985 G1 X-95.60751 Y-21.87277 Z-18.5082
N986 G1 X-95.73911 Y-22.05391 Z-18.39412
N987 G1 X-95.86624 Y-22.22889 Z-18.2662
N988 G1 X-95.9884 Y-22.39704 Z-18.12496
N989 G1 X-96.10511 Y-22.55767 Z-17.97094
N990 G1 X-96.21591 Y-22.71016 Z-17.80476
N991 G1 X-96.32035 Y-22.85391 Z-17.62708
N992 G1 X-96.41802 Y-22.98836 Z-17.43859
N993 G1 X-96.50855 Y-23.11296 Z-17.24003
N994 G1 X-96.59157 Y-23.22722 Z-17.0322
N995 G1 X-96.66676 Y-23.33071 Z-16.8159
N996 G1 X-96.73382 Y-23.423 Z-16.59201
N997 G1 X-96.79247 Y-23.50374 Z-16.36139
N998 G1 X-96.84251 Y-23.57261 Z-16.12496
N999 G1 X-96.88371 Y-23.62932 Z-15.88365
N1000 G1 X-96.91594 Y-23.67367 Z-15.63841
N1001 G1 X-96.93904 Y-23.70547 Z-15.39022
N1002 G1 X-96.95294 Y-23.7246 Z-15.14005
N1003 G1 X-96.95758 Y-23.73099 Z-14.88889
N1004 G0 Z5
N1005 G0 X22.82563 Y-23.60158
N1006 G1 Z-18.66667 F333.3
N1007 G1 X22.82136 Y-23.59494 Z-18.91783 F600
N1008 G1 X22.80857 Y-23.57505 Z-19.168
N1009 G1 X22.78732 Y-23.54198 Z-19.41619
N1010 G1 X22.75768 Y-23.49587 Z-19.66143
N1011 G1 X22.71976 Y-23.4369 Z-19.90273
N1012 G1 X22.67374 Y-23.3653 Z-20.13916
N1013 G1 X22.61977 Y-23.28135 Z-20.36978
N1014 G1 X22.55808 Y-23.18539 Z-20.59368
N1015 G1 X22.48891 Y-23.07779 Z-20.80997
N1016 G1 X22.41253 Y-22.95898 Z-21.01781
N1017 G1 X22.32925 Y-22.82942 Z-21.21636
N1018 G1 X22.23939 Y-22.68964 Z-21.40485
N1019 G1 X22.1433 Y-22.54017 Z-21.58254
N1020 G1 X22.04137 Y-22.38161 Z-21.74872
N1021 G1 X21.93401 Y-22.21459 Z-21.90273
N1022 G1 X21.82162 Y-22.03977 Z-22.04398
N1023 G1 X21.70466 Y-21.85782 Z-22.17189
N1024 G1 X21.58359 Y-21.66949 Z-22.28597
N1025 G1 X21.45888 Y-21.47549 Z-22.38577
N1026 G1 X21.33103 Y-21.27661 Z-22.47089
N1027 G1 X21.20054 Y-21.07363 Z-22.541
N1028 G1 X21.06793 Y-20.86734 Z-22.59582
N1029 G1 X20.93372 Y-20.65857 Z-22.63512
N1030 G1 X20.79844 Y-20.44813 Z-22.65877
N1031 G1 X20.66262 Y-20.23685 Z-22.66667
N1032 G1 X20.44209 Y-19.89381
N1033 G2 X8.72535 Y20 CR=73.77465
N1034 G1 X8.77035 Y110.951 Z-22.66667
N1035 G3 X8.451 Y111.27035 CR=0.31935
N1036 G1 X-8.451 Z-22.66667
N1037 G3 X-8.77035 Y110.951 CR=0.31935
N1038 G1 X-8.72535 Y20 Z-22.66667
N1039 G2 X-20.44241 Y-19.8943 CR=73.77465
N1040 G1 X-20.5269 Y-20.02573 Z-22.66667
N1041 G1 X-20.66272 Y-20.23701 Z-22.65877
N1042 G1 X-20.798 Y-20.44744 Z-22.63512
N1043 G1 X-20.93222 Y-20.65622 Z-22.59582
N1044 G1 X-21.06483 Y-20.8625 Z-22.541
N1045 G1 X-21.19532 Y-21.06549 Z-22.47089
N1046 G1 X-21.32317 Y-21.26437 Z-22.38577
N1047 G1 X-21.44788 Y-21.45836 Z-22.28597
N1048 G1 X-21.56895 Y-21.6467 Z-22.17189
N1049 G1 X-21.68592 Y-21.82864 Z-22.04398
N1050 G1 X-21.7983 Y-22.00346 Z-21.90273
N1051 G1 X-21.90567 Y-22.17048 Z-21.74872
N1052 G1 X-22.0076 Y-22.32904 Z-21.58254
N1053 G1 X-22.10369 Y-22.4785 Z-21.40485
N1054 G1 X-22.19355 Y-22.61829 Z-21.21636
N1055 G1 X-22.27684 Y-22.74784 Z-21.01781
N1056 G1 X-22.35322 Y-22.86665 Z-20.80997
N1057 G1 X-22.42239 Y-22.97425 Z-20.59368
N1058 G1 X-22.48408 Y-23.07021 Z-20.36978
N1059 G1 X-22.53804 Y-23.15416 Z-20.13916
N1060 G1 X-22.58407 Y-23.22576 Z-19.90273
N1061 G1 X-22.62198 Y-23.28474 Z-19.66143
N1062 G1 X-22.65163 Y-23.33085 Z-19.41619
N1063 G1 X-22.67288 Y-23.36391 Z-19.168
N1064 G1 X-22.68567 Y-23.3838 Z-18.91783
N1065 G1 X-22.68994 Y-23.39044 Z-18.66667
N1066 G0 Z5
N1067 G0 X59.16389 Y-23.00582
N1068 G1 Z-18.66667 F333.3
N1069 G1 X59.15831 Y-23.00023 Z-18.91783 F600
N1070 G1 X59.14158 Y-22.98351 Z-19.168
N1071 G1 X59.11378 Y-22.95572 Z-19.41619
N1072 G1 X59.07502 Y-22.91697 Z-19.66143
N1073 G1 X59.02544 Y-22.8674 Z-19.90273
N1074 G1 X58.96524 Y-22.80722 Z-20.13916
N1075 G1 X58.89467 Y-22.73666 Z-20.36978
N1076 G1 X58.81399 Y-22.656 Z-20.59368
N1077 G1 X58.72353 Y-22.56556 Z-20.80997
N1078 G1 X58.62365 Y-22.46569 Z-21.01781
N1079 G1 X58.51473 Y-22.3568 Z-21.21636
N1080 G1 X58.39721 Y-22.23931 Z-21.40485
N1081 G1 X58.27156 Y-22.11368 Z-21.58254
N1082 G1 X58.13826 Y-21.98041 Z-21.74872
N1083 G1 X57.99784 Y-21.84002 Z-21.90273
N1084 G1 X57.85087 Y-21.69308 Z-22.04398
N1085 G1 X57.69791 Y-21.54015 Z-22.17189
N1086 G1 X57.53957 Y-21.38185 Z-22.28597
N1087 G1 X57.37648 Y-21.2188 Z-22.38577
N1088 G1 X57.20928 Y-21.05163 Z-22.47089
N1089 G1 X57.03863 Y-20.88102 Z-22.541
N1090 G1 X56.86521 Y-20.70763 Z-22.59582
N1091 G1 X56.68969 Y-20.53215 Z-22.63512
N1092 G1 X56.51277 Y-20.35527 Z-22.65877
N1093 G1 X56.33516 Y-20.17769 Z-22.66667
N1094 G1 X56.04676 Y-19.88936
N1095 G1 X49.32798 Y-13.17202
N1096 G2 X35.58767 Y20 CR=46.91233
N1097 G1 X35.63267 Y135.07205 Z-22.66667
N1098 G3 X35.2686 Y135.951 CR=1.24301
N1099 G1 X33.45098 Y137.7686 Z-22.66667
N1100 G3 X32.57203 Y138.13268 CR=1.24304
N1101 G1 X-32.57203 Z-22.66667
N1102 G3 X-33.45098 Y137.7686 CR=1.24304
N1103 G1 X-35.2686 Y135.951 Z-22.66667
N1104 G3 X-35.63267 Y135.07205 CR=1.243
N1105 G1 X-35.58767 Y20 Z-22.66667
N1106 G2 X-49.32798 Y-13.17202 CR=46.91233
N1107 G1 X-56.04885 Y-19.89145 Z-22.66667
N1108 G1 X-56.15934 Y-20.00192
N1109 G1 X-56.33696 Y-20.1795 Z-22.65877
N1110 G1 X-56.51388 Y-20.35638 Z-22.63512
N1111 G1 X-56.6894 Y-20.53186 Z-22.59581
N1112 G1 X-56.86282 Y-20.70525 Z-22.541
N1113 G1 X-57.03347 Y-20.87586 Z-22.47089
N1114 G1 X-57.20067 Y-21.04302 Z-22.38577
N1115 G1 X-57.36376 Y-21.20608 Z-22.28597
N1116 G1 X-57.5221 Y-21.36438 Z-22.17189
N1117 G1 X-57.67505 Y-21.5173 Z-22.04398
N1118 G1 X-57.82203 Y-21.66425 Z-21.90273
N1119 G1 X-57.96245 Y-21.80463 Z-21.74872
N1120 G1 X-58.09574 Y-21.9379 Z-21.58254
N1121 G1 X-58.2214 Y-22.06353 Z-21.40485
N1122 G1 X-58.33892 Y-22.18103 Z-21.21636
N1123 G1 X-58.44784 Y-22.28992 Z-21.01781
N1124 G1 X-58.54772 Y-22.38978 Z-20.80997
N1125 G1 X-58.63818 Y-22.48022 Z-20.59368
N1126 G1 X-58.71886 Y-22.56088 Z-20.36978
N1127 G1 X-58.78943 Y-22.63144 Z-20.13916
N1128 G1 X-58.84963 Y-22.69162 Z-19.90273
N1129 G1 X-58.89921 Y-22.74119 Z-19.66143
N1130 G1 X-58.93797 Y-22.77995 Z-19.41619
N1131 G1 X-58.96577 Y-22.80774 Z-19.168
N1132 G1 X-58.98249 Y-22.82446 Z-18.91783
N1133 G1 X-58.98808 Y-22.83004 Z-18.66667
N1134 G0 Z5
N1135 G0 X96.63351 Y-23.28558
N1136 G1 Z-19.06667 F333.3
N1137 G1 X96.62898 Y-23.27935 Z-19.30212 F600
N1138 G1 X96.6154 Y-23.26067 Z-19.53656
N1139 G1 X96.59285 Y-23.22962 Z-19.76899
N1140 G1 X96.5614 Y-23.18634 Z-19.99842
N1141 G1 X96.52121 Y-23.13102 Z-20.22385
N1142 G1 X96.47243 Y-23.06388 Z-20.44433
N1143 G1 X96.41529 Y-22.98523 Z-20.65891
N1144 G1 X96.35001 Y-22.89539 Z-20.86667
N1145 G1 X96.27689 Y-22.79474 Z-21.06672
N1146 G1 X96.19624 Y-22.68373 Z-21.25821
N1147 G1 X96.10839 Y-22.56282 Z-21.44031
N1148 G1 X96.01374 Y-22.43254 Z-21.61225
N1149 G1 X95.91267 Y-22.29344 Z-21.77329
N1150 G1 X95.80563 Y-22.14611 Z-21.92274
N1151 G1 X95.69308 Y-21.9912 Z-22.05996
N1152 G1 X95.57549 Y-21.82935 Z-22.18436
N1153 G1 X95.45337 Y-21.66127 Z-22.29541
N1154 G1 X95.32725 Y-21.48767 Z-22.39263
N1155 G1 X95.19765 Y-21.3093 Z-22.47561
N1156 G1 X95.06515 Y-21.12692 Z-22.544
N1157 G1 X94.9303 Y-20.94131 Z-22.59749
N1158 G1 X94.79368 Y-20.75327 Z-22.63587
N1159 G1 X94.65587 Y-20.56361 Z-22.65896
N1160 G1 X94.51748 Y-20.37312 Z-22.66667
N1161 G1 X94.51289 Y-20.3668
N1162 G3 X94.10524 Y-19.88951 CR=4
N1163 G1 X68.35786 Y5.85786 Z-22.66667
N1164 G2 X62.5 Y20 CR=20
N1165 G1 Y146.71584 Z-22.66667
N1166 G1 X44.21584 Y164.99979
N1167 G1 X-44.21563 Y165
N1168 G1 X-62.5 Y146.71584
N1169 G1 Y20
N1170 G2 X-68.35786 Y5.85786 CR=20
N1171 G1 X-88.35786 Y-14.14214 Z-22.66667
N1172 G1 X-94.10696 Y-19.89123
N1173 G3 X-94.5146 Y-20.36851 CR=4
N1174 G1 X-94.60644 Y-20.49492 Z-22.66667
N1175 G1 X-94.75407 Y-20.69812 Z-22.65877
N1176 G1 X-94.90111 Y-20.90051 Z-22.63512
N1177 G1 X-95.047 Y-21.1013 Z-22.59582
N1178 G1 X-95.19114 Y-21.2997 Z-22.541
N1179 G1 X-95.33298 Y-21.49492 Z-22.47089
N1180 G1 X-95.47195 Y-21.6862 Z-22.38577
N1181 G1 X-95.60751 Y-21.87277 Z-22.28597
N1182 G1 X-95.73911 Y-22.05391 Z-22.17189
N1183 G1 X-95.86624 Y-22.22889 Z-22.04398
N1184 G1 X-95.9884 Y-22.39704 Z-21.90273
N1185 G1 X-96.10511 Y-22.55767 Z-21.74872
N1186 G1 X-96.21591 Y-22.71016 Z-21.58254
N1187 G1 X-96.32035 Y-22.85391 Z-21.40485
N1188 G1 X-96.41802 Y-22.98836 Z-21.21636
N1189 G1 X-96.50855 Y-23.11296 Z-21.01781
N1190 G1 X-96.59157 Y-23.22722 Z-20.80997
N1191 G1 X-96.66676 Y-23.33071 Z-20.59368
N1192 G1 X-96.73382 Y-23.423 Z-20.36978
N1193 G1 X-96.79247 Y-23.50374 Z-20.13916
N1194 G1 X-96.84251 Y-23.57261 Z-19.90273
N1195 G1 X-96.88371 Y-23.62932 Z-19.66143
N1196 G1 X-96.91594 Y-23.67367 Z-19.41619
N1197 G1 X-96.93904 Y-23.70547 Z-19.168
N1198 G1 X-96.95294 Y-23.7246 Z-18.91783
N1199 G1 X-96.95758 Y-23.73099 Z-18.66667
N1200 G0 Z5
N1201 G0 X22.82563 Y-23.60158
N1202 G1 Z-22.44444 F333.3
N1203 G1 X22.82136 Y-23.59494 Z-22.69561 F600
N1204 G1 X22.80857 Y-23.57505 Z-22.94578
N1205 G1 X22.78732 Y-23.54198 Z-23.19397
N1206 G1 X22.75768 Y-23.49587 Z-23.4392
N1207 G1 X22.71976 Y-23.4369 Z-23.68051
N1208 G1 X22.67374 Y-23.3653 Z-23.91694
N1209 G1 X22.61977 Y-23.28135 Z-24.14756
N1210 G1 X22.55808 Y-23.18539 Z-24.37146
N1211 G1 X22.48891 Y-23.07779 Z-24.58775
N1212 G1 X22.41253 Y-22.95898 Z-24.79559
N1213 G1 X22.32925 Y-22.82942 Z-24.99414
N1214 G1 X22.23939 Y-22.68964 Z-25.18263
N1215 G1 X22.1433 Y-22.54017 Z-25.36032
N1216 G1 X22.04137 Y-22.38161 Z-25.5265
N1217 G1 X21.93401 Y-22.21459 Z-25.68051
N1218 G1 X21.82162 Y-22.03977 Z-25.82176
N1219 G1 X21.70466 Y-21.85782 Z-25.94967
N1220 G1 X21.58359 Y-21.66949 Z-26.06375
N1221 G1 X21.45888 Y-21.47549 Z-26.16355
N1222 G1 X21.33103 Y-21.27661 Z-26.24867
N1223 G1 X21.20054 Y-21.07363 Z-26.31878
N1224 G1 X21.06793 Y-20.86734 Z-26.37359
N1225 G1 X20.93372 Y-20.65857 Z-26.4129
N1226 G1 X20.79844 Y-20.44813 Z-26.43655
N1227 G1 X20.66262 Y-20.23685 Z-26.44444
N1228 G1 X20.44209 Y-19.89381
N1229 G2 X8.72535 Y20 CR=73.77465
N1230 G1 X8.77035 Y110.951 Z-26.44444
N1231 G3 X8.451 Y111.27035 CR=0.31935
N1232 G1 X-8.451 Z-26.44444
N1233 G3 X-8.77035 Y110.951 CR=0.31935
N1234 G1 X-8.72535 Y20 Z-26.44444
N1235 G2 X-20.44241 Y-19.8943 CR=73.77465
N1236 G1 X-20.5269 Y-20.02573 Z-26.44444
N1237 G1 X-20.66272 Y-20.23701 Z-26.43655
N1238 G1 X-20.798 Y-20.44744 Z-26.4129
N1239 G1 X-20.93222 Y-20.65622 Z-26.37359
N1240 G1 X-21.06483 Y-20.8625 Z-26.31878
N1241 G1 X-21.19532 Y-21.06549 Z-26.24867
N1242 G1 X-21.32317 Y-21.26437 Z-26.16355
N1243 G1 X-21.44788 Y-21.45836 Z-26.06375
N1244 G1 X-21.56895 Y-21.6467 Z-25.94967
N1245 G1 X-21.68592 Y-21.82864 Z-25.82176
N1246 G1 X-21.7983 Y-22.00346 Z-25.68051
N1247 G1 X-21.90567 Y-22.17048 Z-25.5265
N1248 G1 X-22.0076 Y-22.32904 Z-25.36032
N1249 G1 X-22.10369 Y-22.4785 Z-25.18263
N1250 G1 X-22.19355 Y-22.61829 Z-24.99414
N1251 G1 X-22.27684 Y-22.74784 Z-24.79559
N1252 G1 X-22.35322 Y-22.86665 Z-24.58775
N1253 G1 X-22.42239 Y-22.97425 Z-24.37146
N1254 G1 X-22.48408 Y-23.07021 Z-24.14756
N1255 G1 X-22.53804 Y-23.15416 Z-23.91694
N1256 G1 X-22.58407 Y-23.22576 Z-23.68051
N1257 G1 X-22.62198 Y-23.28474 Z-23.4392
N1258 G1 X-22.65163 Y-23.33085 Z-23.19397
N1259 G1 X-22.67288 Y-23.36391 Z-22.94578
N1260 G1 X-22.68567 Y-23.3838 Z-22.69561
N1261 G1 X-22.68994 Y-23.39044 Z-22.44444
N1262 G0 Z5
N1263 G0 X59.16389 Y-23.00582
N1264 G1 Z-22.44444 F333.3
N1265 G1 X59.15831 Y-23.00023 Z-22.69561 F600
N1266 G1 X59.14158 Y-22.98351 Z-22.94578
N1267 G1 X59.11378 Y-22.95572 Z-23.19397
N1268 G1 X59.07502 Y-22.91697 Z-23.4392
N1269 G1 X59.02544 Y-22.8674 Z-23.68051
N1270 G1 X58.96524 Y-22.80722 Z-23.91694
N1271 G1 X58.89467 Y-22.73666 Z-24.14756
N1272 G1 X58.81399 Y-22.656 Z-24.37146
N1273 G1 X58.72353 Y-22.56556 Z-24.58775
N1274 G1 X58.62365 Y-22.46569 Z-24.79559
N1275 G1 X58.51473 Y-22.3568 Z-24.99414
N1276 G1 X58.39721 Y-22.23931 Z-25.18263
N1277 G1 X58.27156 Y-22.11368 Z-25.36032
N1278 G1 X58.13826 Y-21.98041 Z-25.5265
N1279 G1 X57.99784 Y-21.84002 Z-25.68051
N1280 G1 X57.85087 Y-21.69308 Z-25.82176
N1281 G1 X57.69791 Y-21.54015 Z-25.94967
N1282 G1 X57.53957 Y-21.38185 Z-26.06375
N1283 G1 X57.37648 Y-21.2188 Z-26.16355
N1284 G1 X57.20928 Y-21.05163 Z-26.24867
N1285 G1 X57.03863 Y-20.88102 Z-26.31878
N1286 G1 X56.86521 Y-20.70763 Z-26.37359
N1287 G1 X56.68969 Y-20.53215 Z-26.4129
N1288 G1 X56.51277 Y-20.35527 Z-26.43655
N1289 G1 X56.33516 Y-20.17769 Z-26.44444
N1290 G1 X56.04676 Y-19.88936
N1291 G1 X49.32798 Y-13.17202
N1292 G2 X35.58767 Y20 CR=46.91233
N1293 G1 X35.63267 Y135.07205 Z-26.44444
N1294 G3 X35.2686 Y135.951 CR=1.24301
N1295 G1 X33.45098 Y137.7686 Z-26.44444
N1296 G3 X32.57203 Y138.13268 CR=1.24304
N1297 G1 X-32.57203 Z-26.44444
N1298 G3 X-33.45098 Y137.7686 CR=1.24304
N1299 G1 X-35.2686 Y135.951 Z-26.44444
N1300 G3 X-35.63267 Y135.07205 CR=1.243
N1301 G1 X-35.58767 Y20 Z-26.44444
N1302 G2 X-49.32798 Y-13.17202 CR=46.91233
N1303 G1 X-56.04885 Y-19.89145 Z-26.44444
N1304 G1 X-56.15934 Y-20.00192
N1305 G1 X-56.33696 Y-20.1795 Z-26.43655
N1306 G1 X-56.51388 Y-20.35638 Z-26.4129
N1307 G1 X-56.6894 Y-20.53186 Z-26.37359
N1308 G1 X-56.86282 Y-20.70525 Z-26.31878
N1309 G1 X-57.03347 Y-20.87586 Z-26.24867
N1310 G1 X-57.20067 Y-21.04302 Z-26.16355
N1311 G1 X-57.36376 Y-21.20608 Z-26.06375
N1312 G1 X-57.5221 Y-21.36438 Z-25.94967
N1313 G1 X-57.67505 Y-21.5173 Z-25.82176
N1314 G1 X-57.82203 Y-21.66425 Z-25.68051
N1315 G1 X-57.96245 Y-21.80463 Z-25.5265
N1316 G1 X-58.09574 Y-21.9379 Z-25.36032
N1317 G1 X-58.2214 Y-22.06353 Z-25.18263
N1318 G1 X-58.33892 Y-22.18103 Z-24.99414
N1319 G1 X-58.44784 Y-22.28992 Z-24.79559
N1320 G1 X-58.54772 Y-22.38978 Z-24.58775
N1321 G1 X-58.63818 Y-22.48022 Z-24.37146
N1322 G1 X-58.71886 Y-22.56088 Z-24.14756
N1323 G1 X-58.78943 Y-22.63144 Z-23.91694
N1324 G1 X-58.84963 Y-22.69162 Z-23.68051
N1325 G1 X-58.89921 Y-22.74119 Z-23.4392
N1326 G1 X-58.93797 Y-22.77995 Z-23.19397
N1327 G1 X-58.96577 Y-22.80774 Z-22.94578
N1328 G1 X-58.98249 Y-22.82446 Z-22.69561
N1329 G1 X-58.98808 Y-22.83004 Z-22.44444
N1330 G0 Z5
N1331 G0 X96.63351 Y-23.28558
N1332 G1 Z-22.84444 F333.3
N1333 G1 X96.62898 Y-23.27935 Z-23.0799 F600
N1334 G1 X96.6154 Y-23.26067 Z-23.31434
N1335 G1 X96.59285 Y-23.22962 Z-23.54677
N1336 G1 X96.5614 Y-23.18634 Z-23.77619
N1337 G1 X96.52121 Y-23.13102 Z-24.00163
N1338 G1 X96.47243 Y-23.06388 Z-24.2221
N1339 G1 X96.41529 Y-22.98523 Z-24.43668
N1340 G1 X96.35001 Y-22.89539 Z-24.64444
N1341 G1 X96.27689 Y-22.79474 Z-24.8445
N1342 G1 X96.19624 Y-22.68373 Z-25.03599
N1343 G1 X96.10839 Y-22.56283 Z-25.21809
N1344 G1 X96.01374 Y-22.43254 Z-25.39003
N1345 G1 X95.91267 Y-22.29344 Z-25.55107
N1346 G1 X95.80563 Y-22.14612 Z-25.70052
N1347 G1 X95.69308 Y-21.9912 Z-25.83774
N1348 G1 X95.57549 Y-21.82935 Z-25.96214
N1349 G1 X95.45337 Y-21.66127 Z-26.07319
N1350 G1 X95.32725 Y-21.48767 Z-26.17041
N1351 G1 X95.19765 Y-21.3093 Z-26.25339
N1352 G1 X95.06515 Y-21.12692 Z-26.32178
N1353 G1 X94.9303 Y-20.94131 Z-26.37527
N1354 G1 X94.79368 Y-20.75327 Z-26.41365
N1355 G1 X94.65587 Y-20.56361 Z-26.43674
N1356 G1 X94.51748 Y-20.37312 Z-26.44444
N1357 G1 X94.51289 Y-20.3668
N1358 G3 X94.10524 Y-19.88951 CR=4
N1359 G1 X68.35786 Y5.85786 Z-26.44444
N1360 G2 X62.5 Y20 CR=20
N1361 G1 Y146.71584 Z-26.44444
N1362 G1 X44.21584 Y164.99979
N1363 G1 X-44.21563 Y165
N1364 G1 X-62.5 Y146.71584
N1365 G1 Y20
N1366 G2 X-68.35786 Y5.85786 CR=20
N1367 G1 X-88.35786 Y-14.14214 Z-26.44444
N1368 G1 X-94.10696 Y-19.89123
N1369 G3 X-94.5146 Y-20.36851 CR=4
N1370 G1 X-94.60644 Y-20.49492 Z-26.44444
N1371 G1 X-94.75407 Y-20.69812 Z-26.43655
N1372 G1 X-94.90111 Y-20.90051 Z-26.4129
N1373 G1 X-95.047 Y-21.1013 Z-26.37359
N1374 G1 X-95.19114 Y-21.2997 Z-26.31878
N1375 G1 X-95.33298 Y-21.49492 Z-26.24867
N1376 G1 X-95.47195 Y-21.6862 Z-26.16355
N1377 G1 X-95.60751 Y-21.87277 Z-26.06375
N1378 G1 X-95.73911 Y-22.05391 Z-25.94967
N1379 G1 X-95.86624 Y-22.22889 Z-25.82176
N1380 G1 X-95.9884 Y-22.39704 Z-25.68051
N1381 G1 X-96.10511 Y-22.55767 Z-25.5265
N1382 G1 X-96.21591 Y-22.71016 Z-25.36032
N1383 G1 X-96.32035 Y-22.85391 Z-25.18263
N1384 G1 X-96.41802 Y-22.98836 Z-24.99414
N1385 G1 X-96.50855 Y-23.11296 Z-24.79559
N1386 G1 X-96.59157 Y-23.22722 Z-24.58775
N1387 G1 X-96.66676 Y-23.33071 Z-24.37146
N1388 G1 X-96.73382 Y-23.423 Z-24.14756
N1389 G1 X-96.79247 Y-23.50374 Z-23.91694
N1390 G1 X-96.84251 Y-23.57261 Z-23.68051
N1391 G1 X-96.88371 Y-23.62932 Z-23.4392
N1392 G1 X-96.91594 Y-23.67367 Z-23.19397
N1393 G1 X-96.93904 Y-23.70547 Z-22.94578
N1394 G1 X-96.95294 Y-23.7246 Z-22.69561
N1395 G1 X-96.95758 Y-23.73099 Z-22.44444
N1396 G0 Z5
N1397 G0 X22.82563 Y-23.60158
N1398 G1 Z-26.22222 F333.3
N1399 G1 X22.82136 Y-23.59494 Z-26.47338 F600
N1400 G1 X22.80857 Y-23.57505 Z-26.72355
N1401 G1 X22.78732 Y-23.54198 Z-26.97175
N1402 G1 X22.75768 Y-23.49587 Z-27.21698
N1403 G1 X22.71976 Y-23.4369 Z-27.45829
N1404 G1 X22.67374 Y-23.3653 Z-27.69472
N1405 G1 X22.61977 Y-23.28135 Z-27.92534
N1406 G1 X22.55808 Y-23.18539 Z-28.14924
N1407 G1 X22.48891 Y-23.07779 Z-28.36553
N1408 G1 X22.41253 Y-22.95898 Z-28.57336
N1409 G1 X22.32925 Y-22.82942 Z-28.77192
N1410 G1 X22.23939 Y-22.68964 Z-28.96041
N1411 G1 X22.1433 Y-22.54017 Z-29.1381
N1412 G1 X22.04137 Y-22.38161 Z-29.30427
N1413 G1 X21.93401 Y-22.21459 Z-29.45829
N1414 G1 X21.82162 Y-22.03977 Z-29.59953
N1415 G1 X21.70466 Y-21.85782 Z-29.72745
N1416 G1 X21.58359 Y-21.66949 Z-29.84153
N1417 G1 X21.45888 Y-21.47549 Z-29.94133
N1418 G1 X21.33103 Y-21.27661 Z-30.02645
N1419 G1 X21.20054 Y-21.07363 Z-30.09655
N1420 G1 X21.06793 Y-20.86734 Z-30.15137
N1421 G1 X20.93372 Y-20.65857 Z-30.19068
N1422 G1 X20.79844 Y-20.44813 Z-30.21433
N1423 G1 X20.66262 Y-20.23685 Z-30.22222
N1424 G1 X20.44209 Y-19.89381
N1425 G2 X8.72535 Y20 CR=73.77465
N1426 G1 X8.77035 Y110.951 Z-30.22222
N1427 G3 X8.451 Y111.27035 CR=0.31935
N1428 G1 X-8.451 Z-30.22222
N1429 G3 X-8.77035 Y110.951 CR=0.31935
N1430 G1 X-8.72535 Y20 Z-30.22222
N1431 G2 X-20.44241 Y-19.8943 CR=73.77465
N1432 G1 X-20.5269 Y-20.02573 Z-30.22222
N1433 G1 X-20.66272 Y-20.23701 Z-30.21433
N1434 G1 X-20.798 Y-20.44744 Z-30.19068
N1435 G1 X-20.93222 Y-20.65622 Z-30.15137
N1436 G1 X-21.06483 Y-20.8625 Z-30.09655
N1437 G1 X-21.19532 Y-21.06549 Z-30.02645
N1438 G1 X-21.32317 Y-21.26437 Z-29.94133
N1439 G1 X-21.44788 Y-21.45836 Z-29.84153
N1440 G1 X-21.56895 Y-21.6467 Z-29.72745
N1441 G1 X-21.68592 Y-21.82864 Z-29.59953
N1442 G1 X-21.7983 Y-22.00346 Z-29.45829
N1443 G1 X-21.90567 Y-22.17048 Z-29.30427
N1444 G1 X-22.0076 Y-22.32904 Z-29.1381
N1445 G1 X-22.10369 Y-22.4785 Z-28.96041
N1446 G1 X-22.19355 Y-22.61829 Z-28.77192
N1447 G1 X-22.27684 Y-22.74784 Z-28.57336
N1448 G1 X-22.35322 Y-22.86665 Z-28.36553
N1449 G1 X-22.42239 Y-22.97425 Z-28.14924
N1450 G1 X-22.48408 Y-23.07021 Z-27.92534
N1451 G1 X-22.53804 Y-23.15416 Z-27.69472
N1452 G1 X-22.58407 Y-23.22576 Z-27.45829
N1453 G1 X-22.62198 Y-23.28474 Z-27.21698
N1454 G1 X-22.65163 Y-23.33085 Z-26.97175
N1455 G1 X-22.67288 Y-23.36391 Z-26.72355
N1456 G1 X-22.68567 Y-23.3838 Z-26.47338
N1457 G1 X-22.68994 Y-23.39044 Z-26.22222
N1458 G0 Z5
N1459 G0 X59.16389 Y-23.00582
N1460 G1 Z-26.22222 F333.3
N1461 G1 X59.15831 Y-23.00023 Z-26.47338 F600
N1462 G1 X59.14158 Y-22.98351 Z-26.72355
N1463 G1 X59.11378 Y-22.95572 Z-26.97175
N1464 G1 X59.07502 Y-22.91697 Z-27.21698
N1465 G1 X59.02544 Y-22.8674 Z-27.45829
N1466 G1 X58.96524 Y-22.80722 Z-27.69472
N1467 G1 X58.89467 Y-22.73666 Z-27.92534
N1468 G1 X58.81399 Y-22.656 Z-28.14924
N1469 G1 X58.72353 Y-22.56556 Z-28.36553
N1470 G1 X58.62365 Y-22.46569 Z-28.57336
N1471 G1 X58.51473 Y-22.3568 Z-28.77192
N1472 G1 X58.39721 Y-22.23931 Z-28.96041
N1473 G1 X58.27156 Y-22.11368 Z-29.1381
N1474 G1 X58.13826 Y-21.98041 Z-29.30427
N1475 G1 X57.99784 Y-21.84002 Z-29.45829
N1476 G1 X57.85087 Y-21.69308 Z-29.59953
N1477 G1 X57.69791 Y-21.54015 Z-29.72745
N1478 G1 X57.53957 Y-21.38185 Z-29.84153
N1479 G1 X57.37648 Y-21.2188 Z-29.94133
N1480 G1 X57.20928 Y-21.05163 Z-30.02645
N1481 G1 X57.03863 Y-20.88102 Z-30.09655
N1482 G1 X56.86521 Y-20.70763 Z-30.15137
N1483 G1 X56.68969 Y-20.53215 Z-30.19068
N1484 G1 X56.51277 Y-20.35527 Z-30.21433
N1485 G1 X56.33516 Y-20.17769 Z-30.22222
N1486 G1 X56.04676 Y-19.88936
N1487 G1 X49.32798 Y-13.17202
N1488 G2 X35.58767 Y20 CR=46.91233
N1489 G1 X35.63267 Y135.07205 Z-30.22222
N1490 G3 X35.2686 Y135.951 CR=1.24301
N1491 G1 X33.45098 Y137.7686 Z-30.22222
N1492 G3 X32.57203 Y138.13268 CR=1.24304
N1493 G1 X-32.57203 Z-30.22222
N1494 G3 X-33.45098 Y137.7686 CR=1.24304
N1495 G1 X-35.2686 Y135.951 Z-30.22222
N1496 G3 X-35.63267 Y135.07205 CR=1.243
N1497 G1 X-35.58767 Y20 Z-30.22222
N1498 G2 X-49.32798 Y-13.17202 CR=46.91233
N1499 G1 X-56.04885 Y-19.89145 Z-30.22222
N1500 G1 X-56.15934 Y-20.00192
N1501 G1 X-56.33696 Y-20.1795 Z-30.21433
N1502 G1 X-56.51388 Y-20.35638 Z-30.19068
N1503 G1 X-56.6894 Y-20.53186 Z-30.15137
N1504 G1 X-56.86282 Y-20.70525 Z-30.09655
N1505 G1 X-57.03347 Y-20.87586 Z-30.02645
N1506 G1 X-57.20067 Y-21.04302 Z-29.94133
N1507 G1 X-57.36376 Y-21.20608 Z-29.84153
N1508 G1 X-57.5221 Y-21.36438 Z-29.72745
N1509 G1 X-57.67505 Y-21.5173 Z-29.59953
N1510 G1 X-57.82203 Y-21.66425 Z-29.45829
N1511 G1 X-57.96245 Y-21.80463 Z-29.30427
N1512 G1 X-58.09574 Y-21.9379 Z-29.1381
N1513 G1 X-58.2214 Y-22.06353 Z-28.96041
N1514 G1 X-58.33892 Y-22.18103 Z-28.77192
N1515 G1 X-58.44784 Y-22.28992 Z-28.57336
N1516 G1 X-58.54772 Y-22.38978 Z-28.36553
N1517 G1 X-58.63818 Y-22.48022 Z-28.14924
N1518 G1 X-58.71886 Y-22.56088 Z-27.92534
N1519 G1 X-58.78943 Y-22.63144 Z-27.69472
N1520 G1 X-58.84963 Y-22.69162 Z-27.45829
N1521 G1 X-58.89921 Y-22.74119 Z-27.21698
N1522 G1 X-58.93797 Y-22.77995 Z-26.97175
N1523 G1 X-58.96577 Y-22.80774 Z-26.72355
N1524 G1 X-58.98249 Y-22.82446 Z-26.47338
N1525 G1 X-58.98808 Y-22.83004 Z-26.22222
N1526 G0 Z5
N1527 G0 X96.63351 Y-23.28558
N1528 G1 Z-26.62222 F333.3
N1529 G1 X96.62898 Y-23.27935 Z-26.85767 F600
N1530 G1 X96.6154 Y-23.26067 Z-27.09212
N1531 G1 X96.59285 Y-23.22962 Z-27.32455
N1532 G1 X96.5614 Y-23.18634 Z-27.55397
N1533 G1 X96.52121 Y-23.13102 Z-27.7794
N1534 G1 X96.47243 Y-23.06388 Z-27.99988
N1535 G1 X96.41529 Y-22.98523 Z-28.21446
N1536 G1 X96.35001 Y-22.89539 Z-28.42222
N1537 G1 X96.27689 Y-22.79474 Z-28.62228
N1538 G1 X96.19624 Y-22.68373 Z-28.81376
N1539 G1 X96.10839 Y-22.56282 Z-28.99587
N1540 G1 X96.01374 Y-22.43254 Z-29.16781
N1541 G1 X95.91267 Y-22.29344 Z-29.32885
N1542 G1 X95.80563 Y-22.14611 Z-29.47829
N1543 G1 X95.69308 Y-21.9912 Z-29.61551
N1544 G1 X95.57549 Y-21.82935 Z-29.73991
N1545 G1 X95.45337 Y-21.66127 Z-29.85096
N1546 G1 X95.32725 Y-21.48767 Z-29.94819
N1547 G1 X95.19765 Y-21.3093 Z-30.03117
N1548 G1 X95.06515 Y-21.12692 Z-30.09955
N1549 G1 X94.9303 Y-20.94131 Z-30.15305
N1550 G1 X94.79368 Y-20.75327 Z-30.19142
N1551 G1 X94.65587 Y-20.56361 Z-30.21451
N1552 G1 X94.51748 Y-20.37312 Z-30.22222
N1553 G1 X94.51289 Y-20.3668
N1554 G3 X94.10524 Y-19.88951 CR=4
N1555 G1 X68.35786 Y5.85786 Z-30.22222
N1556 G2 X62.5 Y20 CR=20
N1557 G1 Y146.71584 Z-30.22222
N1558 G1 X44.21584 Y164.99979
N1559 G1 X-44.21563 Y165
N1560 G1 X-62.5 Y146.71584
N1561 G1 Y20
N1562 G2 X-68.35786 Y5.85786 CR=20
N1563 G1 X-88.35786 Y-14.14214 Z-30.22222
N1564 G1 X-94.10696 Y-19.89123
N1565 G3 X-94.5146 Y-20.36851 CR=4
N1566 G1 X-94.60644 Y-20.49492 Z-30.22222
N1567 G1 X-94.75407 Y-20.69812 Z-30.21433
N1568 G1 X-94.90111 Y-20.90051 Z-30.19068
N1569 G1 X-95.047 Y-21.1013 Z-30.15137
N1570 G1 X-95.19114 Y-21.2997 Z-30.09655
N1571 G1 X-95.33298 Y-21.49492 Z-30.02645
N1572 G1 X-95.47195 Y-21.6862 Z-29.94133
N1573 G1 X-95.60751 Y-21.87277 Z-29.84153
N1574 G1 X-95.73911 Y-22.05391 Z-29.72745
N1575 G1 X-95.86624 Y-22.22889 Z-29.59953
N1576 G1 X-95.9884 Y-22.39704 Z-29.45829
N1577 G1 X-96.10511 Y-22.55767 Z-29.30427
N1578 G1 X-96.21591 Y-22.71016 Z-29.1381
N1579 G1 X-96.32035 Y-22.85391 Z-28.96041
N1580 G1 X-96.41802 Y-22.98836 Z-28.77192
N1581 G1 X-96.50855 Y-23.11296 Z-28.57336
N1582 G1 X-96.59157 Y-23.22722 Z-28.36553
N1583 G1 X-96.66676 Y-23.33071 Z-28.14924
N1584 G1 X-96.73382 Y-23.423 Z-27.92534
N1585 G1 X-96.79247 Y-23.50374 Z-27.69472
N1586 G1 X-96.84251 Y-23.57261 Z-27.45829
N1587 G1 X-96.88371 Y-23.62932 Z-27.21698
N1588 G1 X-96.91594 Y-23.67367 Z-26.97175
N1589 G1 X-96.93904 Y-23.70547 Z-26.72355
N1590 G1 X-96.95294 Y-23.7246 Z-26.47338
N1591 G1 X-96.95758 Y-23.73099 Z-26.22222
N1592 G0 Z5
N1593 G0 X22.82563 Y-23.60158
N1594 G1 Z-30 F333.3
N1595 G1 X22.82136 Y-23.59494 Z-30.25116 F600
N1596 G1 X22.80857 Y-23.57505 Z-30.50133
N1597 G1 X22.78732 Y-23.54198 Z-30.74953
N1598 G1 X22.75768 Y-23.49587 Z-30.99476
N1599 G1 X22.71976 Y-23.4369 Z-31.23607
N1600 G1 X22.67374 Y-23.3653 Z-31.4725
N1601 G1 X22.61977 Y-23.28135 Z-31.70312
N1602 G1 X22.55808 Y-23.18539 Z-31.92701
N1603 G1 X22.48891 Y-23.07779 Z-32.14331
N1604 G1 X22.41253 Y-22.95898 Z-32.35114
N1605 G1 X22.32925 Y-22.82942 Z-32.5497
N1606 G1 X22.23939 Y-22.68964 Z-32.73819
N1607 G1 X22.1433 Y-22.54017 Z-32.91587
N1608 G1 X22.04137 Y-22.38161 Z-33.08205
N1609 G1 X21.93401 Y-22.21459 Z-33.23607
N1610 G1 X21.82162 Y-22.03977 Z-33.37731
N1611 G1 X21.70466 Y-21.85782 Z-33.50523
N1612 G1 X21.58359 Y-21.66949 Z-33.61931
N1613 G1 X21.45888 Y-21.47549 Z-33.71911
N1614 G1 X21.33103 Y-21.27661 Z-33.80423
N1615 G1 X21.20054 Y-21.07363 Z-33.87433
N1616 G1 X21.06793 Y-20.86734 Z-33.92915
N1617 G1 X20.93372 Y-20.65857 Z-33.96846
N1618 G1 X20.79844 Y-20.44813 Z-33.99211
N1619 G1 X20.66262 Y-20.23685 Z-34
N1620 G1 X20.44209 Y-19.89381
N1621 G2 X8.72535 Y20 CR=73.77465
N1622 G1 X8.77035 Y110.951 Z-34
N1623 G3 X8.451 Y111.27035 CR=0.31935
N1624 G1 X-8.451 Z-34
N1625 G3 X-8.77035 Y110.951 CR=0.31935
N1626 G1 X-8.72535 Y20 Z-34
N1627 G2 X-20.44241 Y-19.8943 CR=73.77465
N1628 G1 X-20.5269 Y-20.02573 Z-34
N1629 G1 X-20.66272 Y-20.23701 Z-33.99211
N1630 G1 X-20.798 Y-20.44744 Z-33.96846
N1631 G1 X-20.93222 Y-20.65622 Z-33.92915
N1632 G1 X-21.06483 Y-20.8625 Z-33.87433
N1633 G1 X-21.19532 Y-21.06549 Z-33.80423
N1634 G1 X-21.32317 Y-21.26437 Z-33.71911
N1635 G1 X-21.44788 Y-21.45836 Z-33.61931
N1636 G1 X-21.56895 Y-21.6467 Z-33.50523
N1637 G1 X-21.68592 Y-21.82864 Z-33.37731
N1638 G1 X-21.7983 Y-22.00346 Z-33.23607
N1639 G1 X-21.90567 Y-22.17048 Z-33.08205
N1640 G1 X-22.0076 Y-22.32904 Z-32.91587
N1641 G1 X-22.10369 Y-22.4785 Z-32.73819
N1642 G1 X-22.19355 Y-22.61829 Z-32.5497
N1643 G1 X-22.27684 Y-22.74784 Z-32.35114
N1644 G1 X-22.35322 Y-22.86665 Z-32.14331
N1645 G1 X-22.42239 Y-22.97425 Z-31.92701
N1646 G1 X-22.48408 Y-23.07021 Z-31.70312
N1647 G1 X-22.53804 Y-23.15416 Z-31.4725
N1648 G1 X-22.58407 Y-23.22576 Z-31.23607
N1649 G1 X-22.62198 Y-23.28474 Z-30.99476
N1650 G1 X-22.65163 Y-23.33085 Z-30.74953
N1651 G1 X-22.67288 Y-23.36391 Z-30.50133
N1652 G1 X-22.68567 Y-23.3838 Z-30.25116
N1653 G1 X-22.68994 Y-23.39044 Z-30
N1654 G0 Z5
N1655 G0 X59.16389 Y-23.00582
N1656 G1 Z-30 F333.3
N1657 G1 X59.15831 Y-23.00023 Z-30.25116 F600
N1658 G1 X59.14158 Y-22.98351 Z-30.50133
N1659 G1 X59.11378 Y-22.95572 Z-30.74953
N1660 G1 X59.07502 Y-22.91697 Z-30.99476
N1661 G1 X59.02544 Y-22.8674 Z-31.23607
N1662 G1 X58.96524 Y-22.80722 Z-31.4725
N1663 G1 X58.89467 Y-22.73666 Z-31.70312
N1664 G1 X58.81399 Y-22.656 Z-31.92701
N1665 G1 X58.72353 Y-22.56556 Z-32.14331
N1666 G1 X58.62365 Y-22.46569 Z-32.35114
N1667 G1 X58.51473 Y-22.3568 Z-32.5497
N1668 G1 X58.39721 Y-22.23931 Z-32.73819
N1669 G1 X58.27156 Y-22.11368 Z-32.91587
N1670 G1 X58.13826 Y-21.98041 Z-33.08205
N1671 G1 X57.99784 Y-21.84002 Z-33.23607
N1672 G1 X57.85087 Y-21.69308 Z-33.37731
N1673 G1 X57.69791 Y-21.54015 Z-33.50523
N1674 G1 X57.53957 Y-21.38185 Z-33.61931
N1675 G1 X57.37648 Y-21.2188 Z-33.71911
N1676 G1 X57.20928 Y-21.05163 Z-33.80423
N1677 G1 X57.03863 Y-20.88102 Z-33.87433
N1678 G1 X56.86521 Y-20.70763 Z-33.92915
N1679 G1 X56.68969 Y-20.53215 Z-33.96846
N1680 G1 X56.51277 Y-20.35527 Z-33.99211
N1681 G1 X56.33516 Y-20.17769 Z-34
N1682 G1 X56.04676 Y-19.88936
N1683 G1 X49.32798 Y-13.17202
N1684 G2 X35.58767 Y20 CR=46.91233
N1685 G1 X35.63267 Y135.07205 Z-34
N1686 G3 X35.2686 Y135.951 CR=1.24301
N1687 G1 X33.45098 Y137.7686 Z-34
N1688 G3 X32.57203 Y138.13268 CR=1.24304
N1689 G1 X-32.57203 Z-34
N1690 G3 X-33.45098 Y137.7686 CR=1.24304
N1691 G1 X-35.2686 Y135.951 Z-34
N1692 G3 X-35.63267 Y135.07205 CR=1.243
N1693 G1 X-35.58767 Y20 Z-34
N1694 G2 X-49.32798 Y-13.17202 CR=46.91233
N1695 G1 X-56.04885 Y-19.89145 Z-34
N1696 G1 X-56.15934 Y-20.00192
N1697 G1 X-56.33696 Y-20.1795 Z-33.99211
N1698 G1 X-56.51388 Y-20.35638 Z-33.96846
N1699 G1 X-56.6894 Y-20.53186 Z-33.92915
N1700 G1 X-56.86282 Y-20.70525 Z-33.87433
N1701 G1 X-57.03347 Y-20.87586 Z-33.80423
N1702 G1 X-57.20067 Y-21.04302 Z-33.71911
N1703 G1 X-57.36376 Y-21.20608 Z-33.61931
N1704 G1 X-57.5221 Y-21.36438 Z-33.50523
N1705 G1 X-57.67505 Y-21.5173 Z-33.37731
N1706 G1 X-57.82203 Y-21.66425 Z-33.23607
N1707 G1 X-57.96245 Y-21.80463 Z-33.08205
N1708 G1 X-58.09574 Y-21.9379 Z-32.91587
N1709 G1 X-58.2214 Y-22.06353 Z-32.73819
N1710 G1 X-58.33892 Y-22.18103 Z-32.5497
N1711 G1 X-58.44784 Y-22.28992 Z-32.35114
N1712 G1 X-58.54772 Y-22.38978 Z-32.14331
N1713 G1 X-58.63818 Y-22.48022 Z-31.92701
N1714 G1 X-58.71886 Y-22.56088 Z-31.70312
N1715 G1 X-58.78943 Y-22.63144 Z-31.4725
N1716 G1 X-58.84963 Y-22.69162 Z-31.23607
N1717 G1 X-58.89921 Y-22.74119 Z-30.99476
N1718 G1 X-58.93797 Y-22.77995 Z-30.74953
N1719 G1 X-58.96577 Y-22.80774 Z-30.50133
N1720 G1 X-58.98249 Y-22.82446 Z-30.25116
N1721 G1 X-58.98808 Y-22.83004 Z-30
N1722 G0 Z5
N1723 G0 X96.63351 Y-23.28558
N1724 G1 Z-30.4 F333.3
N1725 G1 X96.62898 Y-23.27935 Z-30.63545 F600
N1726 G1 X96.6154 Y-23.26067 Z-30.86989
N1727 G1 X96.59285 Y-23.22962 Z-31.10232
N1728 G1 X96.5614 Y-23.18634 Z-31.33175
N1729 G1 X96.52121 Y-23.13102 Z-31.55718
N1730 G1 X96.47243 Y-23.06388 Z-31.77766
N1731 G1 X96.41529 Y-22.98523 Z-31.99224
N1732 G1 X96.35001 Y-22.89539 Z-32.2
N1733 G1 X96.27689 Y-22.79474 Z-32.40005
N1734 G1 X96.19624 Y-22.68373 Z-32.59154
N1735 G1 X96.10839 Y-22.56283 Z-32.77364
N1736 G1 X96.01374 Y-22.43254 Z-32.94558
N1737 G1 X95.91267 Y-22.29344 Z-33.10662
N1738 G1 X95.80563 Y-22.14612 Z-33.25607
N1739 G1 X95.69308 Y-21.9912 Z-33.39329
N1740 G1 X95.57549 Y-21.82935 Z-33.51769
N1741 G1 X95.45337 Y-21.66127 Z-33.62874
N1742 G1 X95.32725 Y-21.48767 Z-33.72597
N1743 G1 X95.19765 Y-21.3093 Z-33.80895
N1744 G1 X95.06515 Y-21.12692 Z-33.87733
N1745 G1 X94.9303 Y-20.94131 Z-33.93083
N1746 G1 X94.79368 Y-20.75327 Z-33.9692
N1747 G1 X94.65587 Y-20.56361 Z-33.99229
N1748 G1 X94.51748 Y-20.37312 Z-34
N1749 G1 X94.51289 Y-20.3668
N1750 G3 X94.10524 Y-19.88951 CR=4
N1751 G1 X68.35786 Y5.85786 Z-34
N1752 G2 X62.5 Y20 CR=20
N1753 G1 Y146.71584 Z-34
N1754 G1 X44.21584 Y164.99979
N1755 G1 X-44.21563 Y165
N1756 G1 X-62.5 Y146.71584
N1757 G1 Y20
N1758 G2 X-68.35786 Y5.85786 CR=20
N1759 G1 X-88.35786 Y-14.14214 Z-34
N1760 G1 X-94.10696 Y-19.89123
N1761 G3 X-94.5146 Y-20.36851 CR=4
N1762 G1 X-94.60644 Y-20.49492 Z-34
N1763 G1 X-94.75407 Y-20.69812 Z-33.99211
N1764 G1 X-94.90111 Y-20.90051 Z-33.96846
N1765 G1 X-95.047 Y-21.1013 Z-33.92915
N1766 G1 X-95.19114 Y-21.2997 Z-33.87433
N1767 G1 X-95.33298 Y-21.49492 Z-33.80423
N1768 G1 X-95.47195 Y-21.6862 Z-33.71911
N1769 G1 X-95.60751 Y-21.87277 Z-33.61931
N1770 G1 X-95.73911 Y-22.05391 Z-33.50523
N1771 G1 X-95.86624 Y-22.22889 Z-33.37731
N1772 G1 X-95.9884 Y-22.39704 Z-33.23607
N1773 G1 X-96.10511 Y-22.55767 Z-33.08205
N1774 G1 X-96.21591 Y-22.71016 Z-32.91587
N1775 G1 X-96.32035 Y-22.85391 Z-32.73819
N1776 G1 X-96.41802 Y-22.98836 Z-32.5497
N1777 G1 X-96.50855 Y-23.11296 Z-32.35114
N1778 G1 X-96.59157 Y-23.22722 Z-32.14331
N1779 G1 X-96.66676 Y-23.33071 Z-31.92701
N1780 G1 X-96.73382 Y-23.423 Z-31.70312
N1781 G1 X-96.79247 Y-23.50374 Z-31.4725
N1782 G1 X-96.84251 Y-23.57261 Z-31.23607
N1783 G1 X-96.88371 Y-23.62932 Z-30.99476
N1784 G1 X-96.91594 Y-23.67367 Z-30.74953
N1785 G1 X-96.93904 Y-23.70547 Z-30.50133
N1786 G1 X-96.95294 Y-23.7246 Z-30.25116
N1787 G1 X-96.95758 Y-23.73099 Z-30
N1788 G0 Z15

N1789 M9
N1790 M5
N1791 G0 SUPA Z0 D0
N1792 D1
N1793 M30
